!!!!SEGMENT: pl-cz--iii-696--007_volckmer-augustin--missa-in-es-pleni-sunt.krn
!!!cenid: 17xx:1204
!!!COM: Volckmer, Augustin
!!!COM-rismID: pe30020656
!!!CDT: 1755-~1820
!!!CNT:
!!!OPR: Missa in Es
!!!OTL: Pleni sunt
!!!OMV: 007
!!!PDT:
!!!AGN: Sacred; Mass
!!!SMS-siglum: PL-CZ
!!!SMS-shelfmark: III-696
!!!SMS-shelfwork: 001-007 M
!!!SMS-variant:
!!!SMS-altvar:
!!!NIFC-rismSourceID: 300001398
!!!NIFC-rismChildID: 300001398
!!!NIFC-islandoraID: pl-cz:40545
!!!URL-pdf-islandora: https://repozytorium.nifc.pl/islandora/object/pl-cz%3A40545/datastream/PDF/view
!!!URL-scan:
!!!ONB-nifc: UWAGA: części Mszy: Kyrie, Gloria, Credo, Et incarnatus, Et resurrexit, Sanctus, Pleni sunt, Benedictus, Agnus Dei, Dona nobis
!!!AIN: 1 alto 1 cor 10 empty 1 organ 1 tenor 1 vox
!!!key:
**kern	**fba	**dynam	**kern	**dynam	**kern	**dynam	**kern	**dynam	**kern	**text	**dynam	**kern	**text	**dynam	**kern	**text	**dynam	**kern	**text	**dynam	**kern	**dynam	**kern	**dynam	**kern	**dynam	**kern	**kern	**dynam	**kern	**dynam	**kern	**dynam
*part15	*part15	*part15	*part14	*part14	*part13	*part13	*part12	*part12	*part11	*part11	*part11	*part10	*part10	*part10	*part9	*part9	*part9	*part8	*part8	*part8	*part7	*part7	*part6	*part6	*part5	*part5	*part4	*part3	*part3	*part2	*part2	*part1	*part1
*staff15	*staff15	*	*staff14	*	*staff13	*	*staff12	*	*staff11	*staff11	*	*staff10	*staff10	*	*staff9	*staff9	*	*staff8	*staff8	*	*staff7	*	*staff6	*	*staff5	*	*staff4	*staff3	*	*staff2	*	*staff1	*
*Iorgan	*	*	*Iempty	*	*Iempty	*	*Iempty	*	*Iempty	*	*	*Itenor	*	*	*Ialto	*	*	*Ivox	*	*	*Iempty	*	*Iempty	*	*Icor	*	*Iempty	*Iempty	*	*Iempty	*	*Iempty	*
*I"Organo.	*	*	*I"Viola : obg	*	*I"Violino. Secundo.	*	*I"Violino Primo..	*	*I"Baſſo.	*	*	*I"Tenore.	*	*	*I"Alto:	*	*	*I"Canto.	*	*	*I"Tympano do Es. B.	*	*I"Corno Secundo.	*	*I"Corno Primo.	*	*I"P4	*I"Fagotto Primo. ȇSecundo.	*	*I"Huba . Secundo.	*	*I"Huba Primo	*
*I'org	*	*	*I'vla	*	*I'vl2	*	*I'vl1	*	*I'B	*	*	*I'T	*	*	*I'A	*	*	*I'S	*	*	*I'timp	*	*I'cor 2	*	*I'cor 1	*	*	*I'fg 1 e 2	*	*I'ob2	*	*I'ob1	*
*clefF4	*	*	*clefC3	*	*clefG2	*	*clefG2	*	*clefF4	*	*	*clefC4	*	*	*clefC3	*	*	*clefC1	*	*	*clefF4	*	*clefG2	*	*clefG2	*	*clefF4	*clefF4	*	*clefG2	*	*clefG2	*
*	*	*	*	*	*	*	*	*	*	*	*	*	*	*	*	*	*	*	*	*	*ITrd1c1	*	*ITrd5c9	*	*ITrd5c9	*	*	*	*	*	*	*	*
*k[b-e-a-]	*	*	*k[b-e-a-]	*	*k[b-e-a-]	*	*k[b-e-a-]	*	*k[b-e-a-]	*	*	*k[b-e-a-]	*	*	*k[b-e-a-]	*	*	*k[b-e-a-]	*	*	*k[f#c#g#d#a#]	*	*k[b-e-a-]	*	*k[b-e-a-]	*	*k[b-e-a-]	*k[b-e-a-]	*	*k[b-e-a-]	*	*k[b-e-a-]	*
*E-:	*	*	*E-:	*	*E-:	*	*E-:	*	*E-:	*	*	*E-:	*	*	*E-:	*	*	*E-:	*	*	*	*	*	*	*	*	*E-:	*E-:	*	*E-:	*	*E-:	*
*M3/4	*	*	*M3/4	*	*M3/4	*	*M3/4	*	*M3/4	*	*	*M3/4	*	*	*M3/4	*	*	*M3/4	*	*	*M3/4	*	*M3/4	*	*M3/4	*	*M3/4	*M3/4	*	*M3/4	*	*M3/4	*
*>[A,B,B,C,C,D]	*	*	*>[A,B,B,C,C,D]	*	*>[A,B,B,C,C,D]	*	*>[A,B,B,C,C,D]	*	*>[A,B,B,C,C,D]	*	*	*>[A,B,B,C,C,D]	*	*	*>[A,B,B,C,C,D]	*	*	*>[A,B,B,C,C,D]	*	*	*>[A,B,B,C,C,D]	*	*>[A,B,B,C,C,D]	*	*>[A,B,B,C,C,D]	*	*>[A,B,B,C,C,D]	*>[A,B,B,C,C,D]	*	*>[A,B,B,C,C,D]	*	*>[A,B,B,C,C,D]	*
=1	=1	=1	=1	=1	=1	=1	=1	=1	=1	=1	=1	=1	=1	=1	=1	=1	=1	=1	=1	=1	=1	=1	=1	=1	=1	=1	=1	=1	=1	=1	=1	=1	=1
*>A	*	*	*>A	*	*>A	*	*>A	*	*>A	*	*	*>A	*	*	*>A	*	*	*>A	*	*	*>A	*	*>A	*	*>A	*	*>A	*>A	*	*>A	*	*>A	*
*2\right	*	*	*2\right	*	*	*	*	*	*2\right	*	*	*2\right	*	*	*2\right	*	*	*2\right	*	*	*	*	*2\right	*	*2\right	*	*	*	*	*	*	*	*
!!LO:TX:t=P:problem:w całej partyturze oznaczenia dynamiki czerwonym atramentem
!	!	!	!LO:TX:t=P:problem:all\right:global	!	!LO:TX:t=P:problem:all\right:global	!	!LO:TX:t=P:problem:all\right:global	!	!	!	!	!	!	!	!	!	!	!	!	!	!	!	!	!	!	!	!	!	!	!	!	!	!
!	!	!	!	!	!	!	!	!	!	!	!	!	!	!	!	!	!	!	!	!	!	!	!	!	!	!	!	!	!	!	!	!LO:TX:a:Bi:t=10	!
!	!	!	!	!	!LO:TX:a:Bi:t=Allo.	!	!	!	!	!	!	!LO:TX:a:Bi:t=Allo.	!	!	!LO:TX:t=P:problem:w źródle partia na stronie 12 skanu	!	!	!	!	!	!LO:TX:b:Bi:t=10	!	!LO:TX:a:Bi:t=allo	!	!LO:TX:a:Bi:t=allo.	!	!	!LO:TX:a:Bi:t=10	!	!LO:TX:a:Bi:t=10	!	!LO:TX:a:Bi:t=allo	!
!	!	!	!LO:TX:a:Bi:t=Allo.	!	!LO:TX:a:Bi:t=1	!	!LO:TX:a:Bi:t=1	!	!	!	!	!LO:TX:t=P:problem:kolejność bemoli A- e- B-	!	!	!LO:TX:a:Bi:t=allo	!	!	!LO:TX:a:Bi:t=Allo.	!	!	!LO:TX:a:Bi:t=allo	!	!LO:TX:a:Bi:t=Pleni:rj	!	!LO:TX:b:Bi:t=Pleni	!	!	!LO:TX:a:Bi:t=allo.	!	!LO:TX:a:Bi:t=allo.	!	!LO:TX:b:Bi:t=Pleni	!
!LO:TX:b:Bi:t=PLeni:rj	!	!	!LO:TX:b:Bi:t=Pleni:rj	!	!LO:TX:b:Bi:t=Pleni.:rj	!	!LO:TX:a:Bi:t=Pleni:rj	!	!LO:TX:a:Bi:t=allo	!	!	!LO:TX:t=P:problem:w źródle partia na stronie 11 i 14 skanu	!	!	!LO:TX:t=P:problem:kolejność bemoli A- e- B-	!	!	!LO:TX:t=P:problem:kolejność bemoli a- e- b-	!	!	!LO:TX:a:Bi:t=Pleni	!	!LO:TX:t=P:problem:partia in Es	!	!LO:TX:t=P:problem:partia in Es	!	!LO:TX:a:Bi:t=10	!LO:TX:a:Bi:t=Pleni	!	!LO:TX:b:Bi:t=Pleni	!	!	!
!	!	!	!	!	!	!	!	!	!	!	!	!	!	!	!	!	!	!	!	!	!LO:TX:a:t=P:problem:w źródle 10 taktów pauz zapisane jako jedna duża pozioma pauza	!	!	!	!	!	!	!	!	!	!	!	!
!	!	!LO:DY:b:Bi:t=%sia:color=red	!	!LO:DY:b:Bi:t=poco %sorte:color=red	!	!	!	!	!	!	!LO:DY:b	!	!	!LO:DY:a	!	!	!LO:DY:b	!	!	!LO:DY:b	!	!	!	!LO:DY:a	!	!LO:DY:a	!	!	!	!	!	!	!
4B-|> 4BB-\	.	p	4b-\	f	2.r	.	2.r	.	4B-\	Ple-	p	4B-\	Ple-	f	4b-\	Ple-	f	4b-\	Ple-	p	2.r	.	4BB-/	p	4B-/	p	0.r	0.r	.	0.r	.	0.r	.
!LO:TX:b:Bi:t=unis:color=red	!	!	!	!	!	!	!	!	!	!	!	!	!	!	!	!	!	!	!	!	!	!	!	!	!	!	!	!	!	!	!	!	!
4B-|> 4BB-\	.	.	4b-\	.	.	.	.	.	8B-\	-ni	.	8B-\	-ni	.	8b-\	-ni	.	8b-\	-ni	.	.	.	4BB-/	.	4B-/	.	.	.	.	.	.	.	.
.	.	.	.	.	.	.	.	.	8B-\	Sunt	.	8B-\	Sunt	.	8b-\	Sunt	.	8b-\	Sunt	.	.	.	.	.	.	.	.	.	.	.	.	.	.
4B-|> 4BB-\	.	.	4b-\	.	.	.	.	.	4B-\	Cae-	.	4B-\	Cae-	.	4b-\	Cae-	.	4b-\	Cae-	.	.	.	4BB-/	.	4B-/	.	.	.	.	.	.	.	.
=2	=2	=2	=2	=2	=2	=2	=2	=2	=2	=2	=2	=2	=2	=2	=2	=2	=2	=2	=2	=2	=2	=2	=2	=2	=2	=2	=2	=2	=2	=2	=2	=2	=2
*	*	*	*	*	*2\right	*	*2\right	*	*	*	*	*	*	*	*	*	*	*	*	*	*	*	*	*	*	*	*	*	*	*	*	*	*
!	!	!	!	!	!	!	!LO:TX:a:Bi:t=Allo:rj	!	!	!	!	!	!	!	!	!	!	!	!	!	!	!	!	!	!	!	!	!	!	!	!	!	!
4B-|> 4BB-\	.	.	4b-\	.	4r	p	4r	p	4B-\	-li	.	4B-\	-li	.	4b-\	-li	.	4b-\	-li	.	2.r	.	4BB-/	.	4B-/	.	.	.	.	.	.	.	.
4r	.	.	4r	.	8a-|</L	.	8ff|>\L	.	4r	.	.	4r	.	.	4r	.	.	4r	.	.	.	.	4r	.	4r	.	.	.	.	.	.	.	.
.	.	.	.	.	8a-|</	.	8ff|>\	.	.	.	.	.	.	.	.	.	.	.	.	.	.	.	.	.	.	.	.	.	.	.	.	.	.
4r	.	.	4r	.	8f|</	.	8dd|>\	.	4r	.	.	4r	.	.	4r	.	.	4r	.	.	.	.	4r	.	4r	.	.	.	.	.	.	.	.
.	.	.	.	.	8f|</J	.	8dd|>\J	.	.	.	.	.	.	.	.	.	.	.	.	.	.	.	.	.	.	.	.	.	.	.	.	.	.
!	!	!	!	!	!	!	!LO:LB:g=original	!	!	!	!	!	!	!	!	!	!	!	!	!	!	!	!	!	!	!	!	!	!	!	!	!	!
=3	=3	=3	=3	=3	=3	=3	=3	=3	=3	=3	=3	=3	=3	=3	=3	=3	=3	=3	=3	=3	=3	=3	=3	=3	=3	=3	=3	=3	=3	=3	=3	=3	=3
!	!	!	!	!	!LO:TX:a:Bi:t=1	!	!	!	!	!	!	!	!	!	!	!	!	!	!	!	!	!	!	!	!	!	!	!	!	!	!	!	!
4B-|> 4BB-\	.	.	4b-\	.	2.r	.	2.r	.	4B-\	Cae-	.	4B-\	Cae-	.	4b-\	Cae-	.	4b-\	Cae-	.	2.r	.	4BB-/	.	4B-/	.	.	.	.	.	.	.	.
4B-|> 4BB-\	.	.	4b-\	.	.	.	.	.	8B-\	-li	.	8B-\	-li	.	8b-\	-li	.	8b-\	-li	.	.	.	4BB-/	.	4B-/	.	.	.	.	.	.	.	.
.	.	.	.	.	.	.	.	.	8B-\	et	.	8B-\	et	.	8b-\	et	.	8b-\	et	.	.	.	.	.	.	.	.	.	.	.	.	.	.
4B-|> 4BB-\	.	.	4b-\	.	.	.	.	.	4B-\	ter-	.	4B-\	ter-	.	4b-\	ter-	.	4b-\	ter-	.	.	.	4BB-/	.	4B-/	.	.	.	.	.	.	.	.
!	!	!	!	!	!	!	!	!	!	!	!	!	!	!	!	!	!	!	!	!	!	!	!LO:LB:g=original	!	!	!	!	!	!	!	!	!	!
=4	=4	=4	=4	=4	=4	=4	=4	=4	=4	=4	=4	=4	=4	=4	=4	=4	=4	=4	=4	=4	=4	=4	=4	=4	=4	=4	=4	=4	=4	=4	=4	=4	=4
!	!	!	!	!	!	!	!	!	!	!	!	!	!	!	!	!	!	!	!	!	!	!	!LO:TX:t=P:problem:w źródle uszkodzony papier	!	!	!	!	!	!	!	!	!	!
4B- 4BB-\	.	.	4b-\	.	4r	.	4r	.	4B-\	-ra	.	4B-\	-ra	.	4b-\	-ra	.	4b-\	-ra	.	2.r	.	2.ryy	.	4B-/	.	.	.	.	.	.	.	.
4r	.	.	4r	.	8b-|</L	.	8gg|>\L	.	4r	.	.	4r	.	.	4r	.	.	4r	.	.	.	.	.	.	4r	.	.	.	.	.	.	.	.
.	.	.	.	.	8b-|</	.	8gg|>\	.	.	.	.	.	.	.	.	.	.	.	.	.	.	.	.	.	.	.	.	.	.	.	.	.	.
4r	.	.	4r	.	8g|</	.	8ee-|>\	.	4r	.	.	4r	.	.	4r	.	.	4r	.	.	.	.	.	.	4r	.	.	.	.	.	.	.	.
.	.	.	.	.	8g|</J	.	8ee-|>\J	.	.	.	.	.	.	.	.	.	.	.	.	.	.	.	.	.	.	.	.	.	.	.	.	.	.
=5	=5	=5	=5	=5	=5	=5	=5	=5	=5	=5	=5	=5	=5	=5	=5	=5	=5	=5	=5	=5	=5	=5	=5	=5	=5	=5	=5	=5	=5	=5	=5	=5	=5
!	!	!	!	!	!LO:TX:a:Bi:t=1	!	!	!	!	!	!	!	!	!	!	!	!	!	!	!	!	!	!	!	!	!	!	!	!	!	!	!	!
4B-|> 4BB-\	.	.	4b-\	.	2.r	.	2.r	.	4B-\	Ple-	.	4B-\	Ple-	.	4b-\	Ple-	.	4b-\	Ple-	.	2.r	.	4BB-/	.	4B-/	.	0.r	0.r	.	0.r	.	0.r	.
4B-|> 4BB-\	.	.	4b-\	.	.	.	.	.	4B-\	-ni	.	4B-\	-ni	.	8b-\	-ni	.	8b-\	-ni	.	.	.	4BB-/	.	4B-/	.	.	.	.	.	.	.	.
.	.	.	.	.	.	.	.	.	.	.	.	.	.	.	8b-\	Sunt	.	8b-\	Sunt	.	.	.	.	.	.	.	.	.	.	.	.	.	.
!	!	!	!	!	!	!	!	!	!	!	!	!	!	!	!	!	!	!	!	!	!	!	!	!	!LO:TX:t=P:problem:w źródle uszkodzony papier	!	!	!	!	!	!	!	!
4B-|> 4BB-\	.	.	4b-\	.	.	.	.	.	4B-\	Sunt	.	4B-\	Sunt	.	4b-\	Cae-	.	4b-\	Cae-	.	.	.	4BB-/	.	4ryy	.	.	.	.	.	.	.	.
!	!	!	!	!	!	!	!	!	!	!	!	!	!	!	!	!	!	!	!	!	!	!	!	!	!LO:LB:g=original	!	!	!	!	!	!	!	!
=6	=6	=6	=6	=6	=6	=6	=6	=6	=6	=6	=6	=6	=6	=6	=6	=6	=6	=6	=6	=6	=6	=6	=6	=6	=6	=6	=6	=6	=6	=6	=6	=6	=6
4B- 4BB-\	.	.	4b-\	.	4r	.	4r	.	4B-\	Cae-	.	4B-\	Cae-	.	4b-\	-li	.	4b-\	-li	.	2.r	.	4BB-/	.	4B-/	.	.	.	.	.	.	.	.
4r	.	.	4r	.	8ff|>\L	.	8aa-|>\L	.	4r	.	.	4r	.	.	4r	.	.	4r	.	.	.	.	4r	.	4r	.	.	.	.	.	.	.	.
.	.	.	.	.	8ff|>\	.	8aa-|>\	.	.	.	.	.	.	.	.	.	.	.	.	.	.	.	.	.	.	.	.	.	.	.	.	.	.
4r	.	.	4r	.	8dd|>\	.	8ff|>\	.	4r	.	.	4r	.	.	4r	.	.	4r	.	.	.	.	4r	.	4r	.	.	.	.	.	.	.	.
.	.	.	.	.	8dd|>\J	.	8ff|>\J	.	.	.	.	.	.	.	.	.	.	.	.	.	.	.	.	.	.	.	.	.	.	.	.	.	.
=7	=7	=7	=7	=7	=7	=7	=7	=7	=7	=7	=7	=7	=7	=7	=7	=7	=7	=7	=7	=7	=7	=7	=7	=7	=7	=7	=7	=7	=7	=7	=7	=7	=7
4B-|> 4BB-\	.	.	4b-\	.	4r	.	4r	.	4B-\	-li	.	4B-\	-li	.	4b-\	Et	.	4b-\	Et	.	2.r	.	4BB-/	.	4B-/	.	.	.	.	.	.	.	.
4r	.	.	4r	.	8gg|>\L	.	8bb-|>\L	.	4r	.	.	4r	.	.	4r	.	.	4r	.	.	.	.	4r	.	4r	.	.	.	.	.	.	.	.
.	.	.	.	.	8gg|>\	.	8bb-|>\	.	.	.	.	.	.	.	.	.	.	.	.	.	.	.	.	.	.	.	.	.	.	.	.	.	.
4r	.	.	4r	.	8ee-|>\	.	8gg|>\	.	4r	.	.	4r	.	.	4r	.	.	4r	.	.	.	.	4r	.	4r	.	.	.	.	.	.	.	.
.	.	.	.	.	8ee-|>\J	.	8gg|>\J	.	.	.	.	.	.	.	.	.	.	.	.	.	.	.	.	.	.	.	.	.	.	.	.	.	.
!	!	!	!LO:LB:g=original	!	!	!	!	!	!	!	!	!	!	!	!	!	!	!	!	!	!	!	!	!	!	!	!	!	!	!	!	!	!
=8	=8	=8	=8	=8	=8	=8	=8	=8	=8	=8	=8	=8	=8	=8	=8	=8	=8	=8	=8	=8	=8	=8	=8	=8	=8	=8	=8	=8	=8	=8	=8	=8	=8
4B-|> 4BB-\	.	.	4b-\	.	4r	.	4r	.	4B-\	et	.	4B-\	et	.	4b-\	ter-	.	4b-\	ter-	.	2.r	.	4BB-/	.	4B-/	.	.	.	.	.	.	.	.
4r	.	.	4r	.	8a-|</L	.	8ff|>\L	.	4r	.	.	4r	.	.	4r	.	.	4r	.	.	.	.	4r	.	4r	.	.	.	.	.	.	.	.
.	.	.	.	.	8a-|</	.	8ff|>\	.	.	.	.	.	.	.	.	.	.	.	.	.	.	.	.	.	.	.	.	.	.	.	.	.	.
4r	.	.	4r	.	8f|</	.	8dd|>\	.	4r	.	.	4r	.	.	4r	.	.	4r	.	.	.	.	4r	.	4r	.	.	.	.	.	.	.	.
.	.	.	.	.	8f|</J	.	8dd|>\J	.	.	.	.	.	.	.	.	.	.	.	.	.	.	.	.	.	.	.	.	.	.	.	.	.	.
!	!	!	!	!	!LO:LB:g=original	!	!	!	!LO:PB:g=original	!	!	!LO:LB:g=original	!	!	!	!	!	!	!	!	!	!	!	!	!	!	!	!	!	!	!	!	!
=9	=9	=9	=9	=9	=9	=9	=9	=9	=9	=9	=9	=9	=9	=9	=9	=9	=9	=9	=9	=9	=9	=9	=9	=9	=9	=9	=9	=9	=9	=9	=9	=9	=9
!	!	!	!	!	!	!	!	!	!	!	!	!	!	!	!LO:TX:t=P:problem:w źródle takt 10 repetycją 9 (zaznaczone ołówkiem)	!	!	!	!	!	!	!	!	!	!	!	!	!	!	!	!	!	!
4B-|>\	.	.	4b-\	.	4r	.	4r	.	4B-\	ter-	.	4B-\	ter-	.	4b-\	.	.	4b-\	.	.	2.r	.	4BB-/	.	4B-/	.	1.r	1.r	.	1.r	.	1.r	.
4r	.	.	4r	.	8b-|</L	.	8gg|>\L	.	4r	.	.	4r	.	.	4r	.	.	4r	.	.	.	.	4r	.	4r	.	.	.	.	.	.	.	.
.	.	.	.	.	8b-|</	.	8gg|>\	.	.	.	.	.	.	.	.	.	.	.	.	.	.	.	.	.	.	.	.	.	.	.	.	.	.
4r	.	.	4r	.	8g|</	.	8ee-|>\	.	4r	.	.	4r	.	.	4r	.	.	4r	.	.	.	.	4r	.	4r	.	.	.	.	.	.	.	.
.	.	.	.	.	8g|</J	.	8ee-|>\J	.	.	.	.	.	.	.	.	.	.	.	.	.	.	.	.	.	.	.	.	.	.	.	.	.	.
!	!	!	!	!	!	!	!	!	!	!	!	!	!	!	!	!	!	!LO:LB:g=original	!	!	!	!	!	!	!	!	!	!	!	!	!	!	!
=10	=10	=10	=10	=10	=10	=10	=10	=10	=10	=10	=10	=10	=10	=10	=10	=10	=10	=10	=10	=10	=10	=10	=10	=10	=10	=10	=10	=10	=10	=10	=10	=10	=10
*	*	*	*	*	*	*	*	*	*	*	*	*	*	*	*rep	*	*	*	*	*	*	*	*	*	*	*	*	*	*	*	*	*	*
!	!	!	!	!	!	!	!	!	!	!	!	!	!	!	!	!	!	!LO:TX:t=P:problem:w źródle uszkodzony papier	!	!	!	!	!	!	!	!	!	!	!	!	!	!	!
4B-|>\	.	.	4b-\	.	4r	.	4r	.	4B-\	-ra	.	4B-\	-ra	.	4b-\yy	-ra	.	4b-\yy	-ra	.	2.r	.	4BB-/	.	4B-/	.	.	.	.	.	.	.	.
4r	.	.	4r	.	8ff|>\L	.	8aa-|>\L	.	4r	.	.	4r	.	.	4ryy	.	.	4r	.	.	.	.	4r	.	4r	.	.	.	.	.	.	.	.
.	.	.	.	.	8ff|>\	.	8aa-|>\	.	.	.	.	.	.	.	.	.	.	.	.	.	.	.	.	.	.	.	.	.	.	.	.	.	.
4r	.	.	4r	.	8dd|>\	.	8ff|>\	.	4r	.	.	4r	.	.	4ryy	.	.	4r	.	.	.	.	4r	.	4r	.	.	.	.	.	.	.	.
.	.	.	.	.	8dd|>\J	.	8ff|>\J	.	.	.	.	.	.	.	.	.	.	.	.	.	.	.	.	.	.	.	.	.	.	.	.	.	.
*	*	*	*	*	*	*	*	*	*	*	*	*	*	*	*Xrep	*	*	*	*	*	*	*	*	*	*	*	*	*	*	*	*	*	*
!LO:LB:g=original	!	!	!	!	!	!	!	!	!	!	!	!	!	!	!	!	!	!	!	!	!	!	!	!	!	!	!	!	!	!	!	!	!
=11	=11	=11	=11	=11	=11	=11	=11	=11	=11	=11	=11	=11	=11	=11	=11	=11	=11	=11	=11	=11	=11	=11	=11	=11	=11	=11	=11	=11	=11	=11	=11	=11	=11
*	*	*	*	*	*	*	*	*	*	*	*	*	*	*	*	*	*	*	*	*	*2\right	*	*	*	*	*	*	*	*	*	*	*	*
*	*	*	*	*	*	*	*	*	*	*	*	*	*	*	*	*	*	*	*	*	*tremolo	*	*	*	*	*	*2\right	*2\right	*	*2\right	*	*2\right	*
!	!	!	!	!	!	!	!	!	!	!	!	!	!	!	!	!	!	!	!	!	!	!	!	!	!	!	!LO:TX:a:t=P:problem:w źródle współna dynamika dla partii Fagotto 1,2 oraz P4	!	!	!	!	!	!
!	!	!	!	!	!	!	!	!	!	!	!	!	!	!	!	!	!	!	!	!	!	!	!	!	!	!	!	!LO:TX:a:t=P:problem:w źródle współna dynamika dla partii Fagotto 1,2 oraz P4	!	!	!	!	!
!	!	!	!	!	!LO:TX:t=P:problem:mixed beam	!	!LO:TX:t=P:problem:mixed beam	!	!	!	!	!	!	!	!	!	!	!	!	!	!	!	!	!	!	!	!	!	!	!	!	!	!
!	!	!LO:DY:b:Bi:t=%sorto:color=red	!	!LO:DY:b:Bi:t=%sorto:color=red	!	!LO:DY:b:Bi:t=%sorto:color=red	!	!LO:DY:b:Bi:t=%sorto:color=red	!	!	!LO:DY:a	!	!	!LO:DY:b:rj	!	!	!LO:DY:b:Bi:t=%sorte:color=red	!	!	!LO:DY:b	!	!	!	!	!	!	!	!	!	!	!	!	!
(<8E-/L	3	f	8b-\	f	8ee-\L	f	8gg\L	f	2.E-\	glo-	f	2.e-\	glo-	ff	2.b-\	glo-	f	2.gg\	glo-	f	16D#t\LL	.	2.e-\	f	2.g\	f	2.E-\	2.G\	f	2.ee-\	f	2.gg\	f
.	.	.	.	.	.	.	.	.	.	.	.	.	.	.	.	.	.	.	.	.	16D#\	.	.	.	.	.	.	.	.	.	.	.	.
8BB-/)	.	.	4b-\	.	8e-/J	.	8g/J	.	.	.	.	.	.	.	.	.	.	.	.	.	16D#\	.	.	.	.	.	.	.	.	.	.	.	.
.	.	.	.	.	.	.	.	.	.	.	.	.	.	.	.	.	.	.	.	.	16D#\	.	.	.	.	.	.	.	.	.	.	.	.
(<8E-/	.	.	.	.	16e-/LL	.	(<16g/LL	.	.	.	.	.	.	.	.	.	.	.	.	.	16D#\	.	.	.	.	.	.	.	.	.	.	.	.
.	.	.	.	.	(<16f/	.	16a-/	.	.	.	.	.	.	.	.	.	.	.	.	.	16D#\	.	.	.	.	.	.	.	.	.	.	.	.
8BB-/)	.	.	4b-\	.	16g/)	.	16b-/	.	.	.	.	.	.	.	.	.	.	.	.	.	16D#\	.	.	.	.	.	.	.	.	.	.	.	.
.	.	.	.	.	16a-/JJ	.	16cc/JJ)	.	.	.	.	.	.	.	.	.	.	.	.	.	16D#\	.	.	.	.	.	.	.	.	.	.	.	.
(<8E-/	.	.	.	.	(>16b-\LL	.	(>16dd\LL	.	.	.	.	.	.	.	.	.	.	.	.	.	16D#\	.	.	.	.	.	.	.	.	.	.	.	.
.	.	.	.	.	16cc\	.	16ee-\	.	.	.	.	.	.	.	.	.	.	.	.	.	16D#\	.	.	.	.	.	.	.	.	.	.	.	.
8BB-/J)	.	.	8b-\	.	16dd\)	.	16ff\	.	.	.	.	.	.	.	.	.	.	.	.	.	16D#\	.	.	.	.	.	.	.	.	.	.	.	.
.	.	.	.	.	16ee-\JJ	.	16gg\JJ)	.	.	.	.	.	.	.	.	.	.	.	.	.	16D#\JJ	.	.	.	.	.	.	.	.	.	.	.	.
*	*	*	*	*	*	*	*	*	*	*	*	*	*	*	*	*	*	*	*	*	*Xtremolo	*	*	*	*	*	*	*	*	*	*	*	*
!	!	!	!	!	!	!	!LO:LB:g=original	!	!	!	!	!	!	!	!LO:LB:g=original	!	!	!	!	!	!	!	!	!	!	!	!	!	!	!	!	!LO:LB:g=original	!
=12	=12	=12	=12	=12	=12	=12	=12	=12	=12	=12	=12	=12	=12	=12	=12	=12	=12	=12	=12	=12	=12	=12	=12	=12	=12	=12	=12	=12	=12	=12	=12	=12	=12
(<8D/L	3	.	8b-\	.	8ff'>\L	.	8aa-|>\L	.	(<4D/	-ri-	.	2f\	-ri-	.	2b-\	-ri-	.	2aa-\	-ri-	.	8AA#/L	.	8B-/L	.	8f\L	.	2.D\	2.A-\	.	2.ff\	.	2.aa-\	.
8BB-/)	.	.	4b-\	.	8ff'>\J	.	8aa-|>\J	.	.	.	.	.	.	.	.	.	.	.	.	.	8AA#/J	.	8B-/J	.	8f\J	.	.	.	.	.	.	.	.
(<8D/	.	.	.	.	16ff\LL	.	(>16aa-\LL	.	4BB-/)	.	.	.	.	.	.	.	.	.	.	.	4AA#/	.	4B-/	.	4f\	.	.	.	.	.	.	.	.
.	.	.	.	.	(>16ee-\	.	16gg\	.	.	.	.	.	.	.	.	.	.	.	.	.	.	.	.	.	.	.	.	.	.	.	.	.	.
8BB-/)	.	.	4b-\	.	16dd\)	.	16ff\	.	.	.	.	.	.	.	.	.	.	.	.	.	.	.	.	.	.	.	.	.	.	.	.	.	.
.	.	.	.	.	16cc\JJ	.	16ee-\JJ	.	.	.	.	.	.	.	.	.	.	.	.	.	.	.	.	.	.	.	.	.	.	.	.	.	.
(<8D/	.	.	.	.	16b-\LL	.	16dd\LL	.	4D/	-a	.	4f\	-a	.	4b-\	-a	.	4aa-\	-a	.	4r	.	4r	.	4r	.	.	.	.	.	.	.	.
.	.	.	.	.	(>16a-\	.	16cc\	.	.	.	.	.	.	.	.	.	.	.	.	.	.	.	.	.	.	.	.	.	.	.	.	.	.
8BB-/J)	.	.	8b-\	.	16g\	.	16b-\	.	.	.	.	.	.	.	.	.	.	.	.	.	.	.	.	.	.	.	.	.	.	.	.	.	.
.	.	.	.	.	16f\JJ)	.	16a-\JJ)	.	.	.	.	.	.	.	.	.	.	.	.	.	.	.	.	.	.	.	.	.	.	.	.	.	.
!	!	!	!	!	!	!	!	!	!	!	!	!	!	!	!	!	!	!	!	!	!	!	!	!	!	!	!	!	!	!LO:LB:g=original	!	!	!
=13	=13	=13	=13	=13	=13	=13	=13	=13	=13	=13	=13	=13	=13	=13	=13	=13	=13	=13	=13	=13	=13	=13	=13	=13	=13	=13	=13	=13	=13	=13	=13	=13	=13
*	*	*	*	*	*	*	*	*	*	*	*	*	*	*	*	*	*	*	*	*	*tremolo	*	*	*	*	*	*	*	*	*	*	*	*
(<8E-/L	.	.	8b-\	.	8e-'</L	.	8g|</L	.	2.E-\	tu-	.	2.e-\	tu-	.	2.b-\	tu-	.	2.gg\	tu-	.	16D#t\LL	.	2.e-\	.	2.g\	.	2.E-\	2.G\	.	2.ee-\	.	2.gg\	.
.	.	.	.	.	.	.	.	.	.	.	.	.	.	.	.	.	.	.	.	.	16D#\	.	.	.	.	.	.	.	.	.	.	.	.
8BB-/)	.	.	4b-\	.	8e-'</J	.	8g|</J	.	.	.	.	.	.	.	.	.	.	.	.	.	16D#\	.	.	.	.	.	.	.	.	.	.	.	.
.	.	.	.	.	.	.	.	.	.	.	.	.	.	.	.	.	.	.	.	.	16D#\	.	.	.	.	.	.	.	.	.	.	.	.
(<8E-/	.	.	.	.	16e-/LL	.	(<16g/LL	.	.	.	.	.	.	.	.	.	.	.	.	.	16D#\	.	.	.	.	.	.	.	.	.	.	.	.
.	.	.	.	.	(<16f/	.	16a-/	.	.	.	.	.	.	.	.	.	.	.	.	.	16D#\	.	.	.	.	.	.	.	.	.	.	.	.
8BB-/)	.	.	4b-\	.	16g/)	.	16b-/	.	.	.	.	.	.	.	.	.	.	.	.	.	16D#\	.	.	.	.	.	.	.	.	.	.	.	.
.	.	.	.	.	16a-/JJ	.	16cc/JJ)	.	.	.	.	.	.	.	.	.	.	.	.	.	16D#\	.	.	.	.	.	.	.	.	.	.	.	.
(<8E-/	.	.	.	.	16b-\LL	.	(>16dd\LL	.	.	.	.	.	.	.	.	.	.	.	.	.	16D#\	.	.	.	.	.	.	.	.	.	.	.	.
.	.	.	.	.	(>16cc\	.	16ee-\	.	.	.	.	.	.	.	.	.	.	.	.	.	16D#\	.	.	.	.	.	.	.	.	.	.	.	.
8BB-/J)	.	.	8b-\	.	16dd\	.	16ff\	.	.	.	.	.	.	.	.	.	.	.	.	.	16D#\	.	.	.	.	.	.	.	.	.	.	.	.
.	.	.	.	.	16ee-\JJ)	.	16gg\JJ)	.	.	.	.	.	.	.	.	.	.	.	.	.	16D#t\JJ	.	.	.	.	.	.	.	.	.	.	.	.
*	*	*	*	*	*	*	*	*	*	*	*	*	*	*	*	*	*	*	*	*	*Xtremolo	*	*	*	*	*	*	*	*	*	*	*	*
!	!	!	!	!	!	!	!	!	!	!	!	!	!	!	!	!	!	!	!	!	!LO:LB:g=original	!	!	!	!	!	!	!	!	!	!	!	!
=14	=14	=14	=14	=14	=14	=14	=14	=14	=14	=14	=14	=14	=14	=14	=14	=14	=14	=14	=14	=14	=14	=14	=14	=14	=14	=14	=14	=14	=14	=14	=14	=14	=14
(<8D/L	.	.	8b-\	.	8ff'>\L	.	8aa-|>\L	.	2.BB-/	-a	.	2.f\	-a	.	2.b-\	-a	.	2.aa-\	-a	.	4.AA#/	.	4.B-/	.	4.f\	.	2.D\	2.A-\	.	2.ff\	.	2.aa-\	.
8BB-/)	.	.	4b-\	.	8ff'>\J	.	8aa-|>\J	.	.	.	.	.	.	.	.	.	.	.	.	.	.	.	.	.	.	.	.	.	.	.	.	.	.
(<8D/	.	.	.	.	16ff\LL	.	(>16aa-\LL	.	.	.	.	.	.	.	.	.	.	.	.	.	.	.	.	.	.	.	.	.	.	.	.	.	.
.	.	.	.	.	(>16ee-\	.	16gg\	.	.	.	.	.	.	.	.	.	.	.	.	.	.	.	.	.	.	.	.	.	.	.	.	.	.
8BB-/)	.	.	4b-\	.	16dd\	.	16ff\	.	.	.	.	.	.	.	.	.	.	.	.	.	8AA#/	.	8B-/	.	8f\	.	.	.	.	.	.	.	.
.	.	.	.	.	16cc\JJ	.	16ee-\JJ	.	.	.	.	.	.	.	.	.	.	.	.	.	.	.	.	.	.	.	.	.	.	.	.	.	.
(<8D/	.	.	.	.	16b-\LL	.	16dd\LL	.	.	.	.	.	.	.	.	.	.	.	.	.	4AA#/	.	4B-/	.	4f\	.	.	.	.	.	.	.	.
.	.	.	.	.	16a-\	.	16cc\	.	.	.	.	.	.	.	.	.	.	.	.	.	.	.	.	.	.	.	.	.	.	.	.	.	.
8BB-/J)	.	.	8b-\	.	16g\)	.	16b-\	.	.	.	.	.	.	.	.	.	.	.	.	.	.	.	.	.	.	.	.	.	.	.	.	.	.
.	.	.	.	.	16f\JJ	.	16a-\JJ)	.	.	.	.	.	.	.	.	.	.	.	.	.	.	.	.	.	.	.	.	.	.	.	.	.	.
=15	=15	=15	=15	=15	=15	=15	=15	=15	=15	=15	=15	=15	=15	=15	=15	=15	=15	=15	=15	=15	=15	=15	=15	=15	=15	=15	=15	=15	=15	=15	=15	=15	=15
*	*	*	*tremolo	*	*tremolo	*	*	*	*	*	*	*	*	*	*	*	*	*	*	*	*	*	*	*	*	*	*	*	*	*	*	*	*
8E-\L	.	.	16b-\LL	.	16e-/LL	.	16g/LL	.	4E-\	glo-	.	(>4e-\	glo-	.	4b-\	glo-	.	4gg\	glo-	.	4D#\	.	4G/	.	4e-\	.	4E-\	4G\	.	4ee-\	.	4gg\	.
.	.	.	16b-\	.	16e-/	.	16g/	.	.	.	.	.	.	.	.	.	.	.	.	.	.	.	.	.	.	.	.	.	.	.	.	.	.
8E-\	.	.	16b-\	.	16e-/	.	16g/	.	.	.	.	.	.	.	.	.	.	.	.	.	.	.	.	.	.	.	.	.	.	.	.	.	.
.	.	.	16b-\JJ	.	16e-/JJ	.	16g/JJ	.	.	.	.	.	.	.	.	.	.	.	.	.	.	.	.	.	.	.	.	.	.	.	.	.	.
*	*	*	*	*	*	*	*tremolo	*	*	*	*	*	*	*	*	*	*	*	*	*	*	*	*	*	*	*	*	*	*	*	*	*	*
8F\	.	.	16f\LL	.	16a-/LL	.	16dd\LL	.	4F\	-ri-	.	4d\)	.	.	4a-\	-ri-	.	4dd\	-ri-	.	4AA#\	.	4B-/	.	4f\	.	4F\	4F\	.	4a-/	.	4dd\	.
.	.	.	16f\	.	16a-/	.	16dd\	.	.	.	.	.	.	.	.	.	.	.	.	.	.	.	.	.	.	.	.	.	.	.	.	.	.
8F\	.	.	16f\	.	16a-/	.	16dd\	.	.	.	.	.	.	.	.	.	.	.	.	.	.	.	.	.	.	.	.	.	.	.	.	.	.
.	.	.	16f\JJ	.	16a-/JJ	.	16dd\JJ	.	.	.	.	.	.	.	.	.	.	.	.	.	.	.	.	.	.	.	.	.	.	.	.	.	.
8G\	.	.	16g\LL	.	16b-\LL	.	16ee-\LL	.	4G\	-a	.	4e-\	-ri-	.	4b-\	-a	.	4ee-\	-a	.	4D#\	.	4e-\	.	4g\	.	4G\	4G\	.	4b-/	.	4ee-\	.
.	.	.	16g\	.	16b-\	.	16ee-\	.	.	.	.	.	.	.	.	.	.	.	.	.	.	.	.	.	.	.	.	.	.	.	.	.	.
8G\J	.	.	16g\	.	16b-\	.	16ee-\	.	.	.	.	.	.	.	.	.	.	.	.	.	.	.	.	.	.	.	.	.	.	.	.	.	.
.	.	.	16g\JJ	.	16b-\JJ	.	16ee-\JJ	.	.	.	.	.	.	.	.	.	.	.	.	.	.	.	.	.	.	.	.	.	.	.	.	.	.
=16	=16	=16	=16	=16	=16	=16	=16	=16	=16	=16	=16	=16	=16	=16	=16	=16	=16	=16	=16	=16	=16	=16	=16	=16	=16	=16	=16	=16	=16	=16	=16	=16	=16
!LO:TX:t=P:problem:mixed beam	!	!	!	!	!	!	!	!	!	!	!	!	!	!	!	!	!	!	!	!	!	!	!	!	!	!	!	!	!	!	!	!	!
8A-\L	.	.	16a-\LL	.	16cc\LL	.	16ff\LL	.	4A-\	tu-	.	4f\	-a	.	4cc\	tu-	.	4ff\	tu-	.	4r	.	4r	.	4r	.	4A-\	4A-\	.	4cc\	.	4ff\	.
.	.	.	16a-\	.	16cc\	.	16ff\	.	.	.	.	.	.	.	.	.	.	.	.	.	.	.	.	.	.	.	.	.	.	.	.	.	.
8A-\	.	.	16a-\	.	16cc\	.	16ff\	.	.	.	.	.	.	.	.	.	.	.	.	.	.	.	.	.	.	.	.	.	.	.	.	.	.
.	.	.	16a-\JJ	.	16cc\JJ	.	16ff\JJ	.	.	.	.	.	.	.	.	.	.	.	.	.	.	.	.	.	.	.	.	.	.	.	.	.	.
8B-\	.	.	16b-\LL	.	16ff\LL	.	16aa-\LL	.	4r	.	.	4r	.	.	4r	.	.	4r	.	.	4r	.	4r	.	4r	.	4B-\	4B-\	.	4ff\	.	4aa-\	.
.	.	.	16b-\	.	16ff\	.	16aa-\	.	.	.	.	.	.	.	.	.	.	.	.	.	.	.	.	.	.	.	.	.	.	.	.	.	.
8B-\	4	.	16b-\	.	16ff\	.	16aa-\	.	.	.	.	.	.	.	.	.	.	.	.	.	.	.	.	.	.	.	.	.	.	.	.	.	.
.	.	.	16b-\	.	16ff\JJ	.	16aa-\JJ	.	.	.	.	.	.	.	.	.	.	.	.	.	.	.	.	.	.	.	.	.	.	.	.	.	.
8BB-/	3	.	16b-\	.	16f/LL	.	16dd\LL	.	4B-\	.	.	4B-\	tu-	.	4f\	.	.	4dd\	.	.	4AA#/	.	4B-/	.	4f\	.	4BB-/	4BB-/	.	4ff\	.	4dd\	.
.	.	.	16b-\	.	16f/	.	16dd\	.	.	.	.	.	.	.	.	.	.	.	.	.	.	.	.	.	.	.	.	.	.	.	.	.	.
8BB-/J	.	.	16b-\	.	16f/	.	16dd\	.	.	.	.	.	.	.	.	.	.	.	.	.	.	.	.	.	.	.	.	.	.	.	.	.	.
.	.	.	16b-\JJ	.	16f/JJ	.	16dd\JJ	.	.	.	.	.	.	.	.	.	.	.	.	.	.	.	.	.	.	.	.	.	.	.	.	.	.
*	*	*	*Xtremolo	*	*Xtremolo	*	*Xtremolo	*	*	*	*	*	*	*	*	*	*	*	*	*	*	*	*	*	*	*	*	*	*	*	*	*	*
=17	=17	=17	=17	=17	=17	=17	=17	=17	=17	=17	=17	=17	=17	=17	=17	=17	=17	=17	=17	=17	=17	=17	=17	=17	=17	=17	=17	=17	=17	=17	=17	=17	=17
4E-\	.	.	4b-\	.	4g/	.	4ee-\	.	4E-\	-a	.	4B-\	-a	.	4g\	-a	.	4ee-\	-a	.	4D#\	.	4e-\	.	4g\	.	4E-\	4E-\	.	4gg\	.	4ee-\	.
4r	.	.	4r	.	4r	.	4r	.	4r	.	.	4r	.	.	4r	.	.	4r	.	.	4r	.	4r	.	4r	.	4r	4r	.	4r	.	4r	.
!	!	!	!	!	!LO:LB:g=original	!	!	!	!	!	!	!	!	!	!	!	!	!	!	!	!	!	!	!	!	!	!	!	!	!	!	!	!
=!|:	=!|:	=!|:	=!|:	=!|:	=!|:	=!|:	=!|:	=!|:	=!|:	=!|:	=!|:	=!|:	=!|:	=!|:	=!|:	=!|:	=!|:	=!|:	=!|:	=!|:	=!|:	=!|:	=!|:	=!|:	=!|:	=!|:	=!|:	=!|:	=!|:	=!|:	=!|:	=!|:	=!|:
*>B	*	*	*>B	*	*>B	*	*>B	*	*>B	*	*	*>B	*	*	*>B	*	*	*>B	*	*	*>B	*	*>B	*	*>B	*	*>B	*>B	*	*>B	*	*>B	*
!	!	!	!	!	!	!	!	!	!	!	!	!LO:TX:a:Bi:t=Dolce:color=red	!	!	!	!	!	!	!	!	!	!	!	!	!	!	!	!	!	!	!	!	!
!	!	!	!LO:N:vis=8	!	!	!	!	!	!	!	!	!LO:TX:a:Bi:t=Solo:rj	!	!	!	!	!	!	!	!	!	!	!	!	!	!	!LO:TX:a:Bi:t=unis	!	!	!	!	!	!
4r	.	.	4r	.	4r	.	(>8b-\L	p	4r	.	.	8B-\L	Ple-	.	4r	.	.	4r	.	.	4r	.	4r	.	4r	.	4r	4r	.	4r	.	4r	.
.	.	.	.	.	.	.	8dd\J)	.	.	.	.	8d\J	.	.	.	.	.	.	.	.	.	.	.	.	.	.	.	.	.	.	.	.	.
!	!	!	!	!	!	!	!LO:LB:g=original	!	!	!	!	!	!	!	!	!	!	!	!	!	!	!	!	!	!	!	!	!	!	!	!	!	!
=18	=18	=18	=18	=18	=18	=18	=18	=18	=18	=18	=18	=18	=18	=18	=18	=18	=18	=18	=18	=18	=18	=18	=18	=18	=18	=18	=18	=18	=18	=18	=18	=18	=18
!LO:TX:b:Bi:t=Solo:rj	!	!	!	!	!	!	!LO:TX:b:Bi:t=vox:color=red	!	!LO:TX:a:Bi:t=3	!	!	!	!	!	!LO:TX:a:Bi:t=3	!	!	!LO:TX:a:Bi:t=3	!	!	!LO:TX:a:Bi:t=3.	!	!LO:TX:a:Bi:t=3	!	!LO:TX:a:Bi:t=3	!	!	!	!	!LO:TX:a:Bi:t=3	!	!LO:TX:a:Bi:t=3	!
!	!	!LO:DY:a:Bi:t=%sia:color=red	!	!LO:DY:b:Bi:t=%sia:color=red	!	!LO:DY:a:Bi:t=%sia:color=red	!	!	!	!	!	!	!	!	!	!	!	!	!	!	!	!	!	!	!	!	!	!	!	!	!	!	!
4BB-/	.	p	4B-/	p	(<8d/L	p	4ff\	.	1.r	.	.	4f\	.	.	1.r	.	.	1.r	.	.	1.r	.	1.r	.	1.r	.	2.r	4BB-/	p	1.r	.	1.r	.
.	.	.	.	.	8f/)	.	.	.	.	.	.	.	.	.	.	.	.	.	.	.	.	.	.	.	.	.	.	.	.	.	.	.	.
4r	.	.	4r	.	(<8d/	.	(>8ff\L	.	.	.	.	8f\L	-ni	.	.	.	.	.	.	.	.	.	.	.	.	.	.	4r	.	.	.	.	.
!	!	!	!	!	!LO:TX:a:Bi:t=vox:color=red	!	!	!	!	!	!	!	!	!	!	!	!	!	!	!	!	!	!	!	!	!	!	!	!	!	!	!	!
.	.	.	.	.	8f/)	.	8dd\J)	.	.	.	.	8d\J	.	.	.	.	.	.	.	.	.	.	.	.	.	.	.	.	.	.	.	.	.
!	!	!	!	!	!	!	!	!	!	!	!	!	!	!	!	!	!	!	!	!	!	!	!	!	!	!	!	!LO:TX:b:Bi:t=vox:color=red	!	!	!	!	!
4E-\	.	.	4e-\	.	(<8e-/	.	(>8gg\L	.	.	.	.	8g\L	Sunt	.	.	.	.	.	.	.	.	.	.	.	.	.	.	4E-\	.	.	.	.	.
.	.	.	.	.	8c/J)	.	8ee-\J)	.	.	.	.	8e-\J	.	.	.	.	.	.	.	.	.	.	.	.	.	.	.	.	.	.	.	.	.
!LO:LB:g=original	!	!	!LO:LB:g=original	!	!	!	!	!	!	!	!	!	!	!	!	!	!	!	!	!	!	!	!	!	!	!	!	!	!	!	!	!	!
=19	=19	=19	=19	=19	=19	=19	=19	=19	=19	=19	=19	=19	=19	=19	=19	=19	=19	=19	=19	=19	=19	=19	=19	=19	=19	=19	=19	=19	=19	=19	=19	=19	=19
!	!	!	!LO:TX:b:Bi:t=vox:color=red	!	!	!	!	!	!	!	!	!	!	!	!	!	!	!	!	!	!	!	!	!	!	!	!	!	!	!	!	!	!
4F\	n	.	4f\	.	(<8An/L	.	4cc\	.	.	.	.	4c\	Cae-	.	.	.	.	.	.	.	.	.	.	.	.	.	2.r	4F\	.	.	.	.	.
.	.	.	.	.	8f/)	.	.	.	.	.	.	.	.	.	.	.	.	.	.	.	.	.	.	.	.	.	.	.	.	.	.	.	.
4r	.	.	4r	.	(<8A/	.	4cc\	.	.	.	.	4c\	-li	.	.	.	.	.	.	.	.	.	.	.	.	.	.	4r	.	.	.	.	.
.	.	.	.	.	8f/)	.	.	.	.	.	.	.	.	.	.	.	.	.	.	.	.	.	.	.	.	.	.	.	.	.	.	.	.
4D\	.	.	4f\	.	(<8B-/	.	4dd\	.	.	.	.	4d\	et	.	.	.	.	.	.	.	.	.	.	.	.	.	.	4F\	.	.	.	.	.
.	.	.	.	.	8f/J)	.	.	.	.	.	.	.	.	.	.	.	.	.	.	.	.	.	.	.	.	.	.	.	.	.	.	.	.
!	!	!	!	!	!	!	!	!	!	!	!	!LO:PB:g=original	!	!	!	!	!	!	!	!	!	!	!	!	!	!	!LO:LB:g=original	!LO:LB:g=original	!	!	!	!	!
=20	=20	=20	=20	=20	=20	=20	=20	=20	=20	=20	=20	=20	=20	=20	=20	=20	=20	=20	=20	=20	=20	=20	=20	=20	=20	=20	=20	=20	=20	=20	=20	=20	=20
4E-\	.	.	4e-\	.	(<8c/L	.	(>8ff\L	.	2.r	.	.	8f\L	ter-	.	2.r	.	.	2.r	.	.	2.r	.	2.r	.	2.r	.	2.r	4E-\	.	2.r	.	2.r	.
.	.	.	.	.	8f/)	.	8ee-\)	.	.	.	.	8e-\	.	.	.	.	.	.	.	.	.	.	.	.	.	.	.	.	.	.	.	.	.
4C/	.	.	4c\	.	(<8c/	.	(>8dd\	.	.	.	.	8d\	.	.	.	.	.	.	.	.	.	.	.	.	.	.	.	4C\	.	.	.	.	.
.	.	.	.	.	8f/)	.	8ee-\	.	.	.	.	8e-\	.	.	.	.	.	.	.	.	.	.	.	.	.	.	.	.	.	.	.	.	.
4F\	n	.	4f\	.	(<8e-/	.	8cc\	.	.	.	.	8c\	.	.	.	.	.	.	.	.	.	.	.	.	.	.	.	4F\	.	.	.	.	.
.	.	.	.	.	8c/J)	.	8an\J)	.	.	.	.	8An\J	.	.	.	.	.	.	.	.	.	.	.	.	.	.	.	.	.	.	.	.	.
!	!	!	!	!	!	!	!	!	!	!	!	!	!	!	!	!	!	!	!	!	!	!	!LO:LB:g=original	!	!	!	!	!	!	!	!	!	!
=21	=21	=21	=21	=21	=21	=21	=21	=21	=21	=21	=21	=21	=21	=21	=21	=21	=21	=21	=21	=21	=21	=21	=21	=21	=21	=21	=21	=21	=21	=21	=21	=21	=21
!	!	!	!	!	!	!	!	!	!	!	!	!	!	!	!	!	!	!	!	!	!	!	!LO:TX:t=P:problem:w źródle uszkodzony papier	!	!	!	!	!	!	!	!	!	!
4BB-/	.	.	4B-/	.	4d/	.	4b-\	.	4r	.	.	4B-\	-ra	.	4r	.	.	4r	.	.	4r	.	4ryy	.	4r	.	4r	4BB-/	.	4r	.	4r	.
4r	.	.	4b-\	.	4r	.	4r	.	4r	.	.	4r	.	.	4r	.	.	4r	.	.	4r	.	4ryy	.	4r	.	4r	4B-\	.	4r	.	4r	.
=:|!|:	=:|!|:	=:|!|:	=:|!|:	=:|!|:	=:|!|:	=:|!|:	=:|!|:	=:|!|:	=:|!|:	=:|!|:	=:|!|:	=:|!|:	=:|!|:	=:|!|:	=:|!|:	=:|!|:	=:|!|:	=:|!|:	=:|!|:	=:|!|:	=:|!|:	=:|!|:	=:|!|:	=:|!|:	=:|!|:	=:|!|:	=:|!|:	=:|!|:	=:|!|:	=:|!|:	=:|!|:	=:|!|:	=:|!|:
*>C	*	*	*>C	*	*>C	*	*>C	*	*>C	*	*	*>C	*	*	*>C	*	*	*>C	*	*	*>C	*	*>C	*	*>C	*	*>C	*>C	*	*>C	*	*>C	*
!	!	!	!	!LO:DY:b:Bi:t=%sia:color=red	!	!	!	!	!	!	!	!	!	!	!	!	!	!	!	!	!	!	!	!	!	!	!	!	!	!	!	!	!
4r	.	.	4r	p	(<8B-/L	.	(8dd\L	.	4r	.	.	(>8d\L	Ple-	.	4r	.	.	4r	.	.	4r	.	4r	.	4r	.	4r	4r	.	4r	.	4r	.
.	.	.	.	.	8f/J)	.	8b-\J)	.	.	.	.	8B-\J	.	.	.	.	.	.	.	.	.	.	.	.	.	.	.	.	.	.	.	.	.
!	!	!	!	!	!	!	!	!	!LO:LB:g=original	!	!	!	!	!	!	!	!	!	!	!	!	!	!	!	!LO:LB:g=original	!	!	!	!	!	!	!	!
=22	=22	=22	=22	=22	=22	=22	=22	=22	=22	=22	=22	=22	=22	=22	=22	=22	=22	=22	=22	=22	=22	=22	=22	=22	=22	=22	=22	=22	=22	=22	=22	=22	=22
!	!	!	!LO:TX:b:Bi:t=vox:color=red	!	!	!	!	!	!	!	!	!	!	!	!	!	!	!	!	!	!	!	!	!	!	!	!	!	!	!	!	!	!
!	!	!	!	!	!	!	!	!	!LO:TX:a:Bi:t=7	!	!	!	!	!	!LO:TX:a:Bi:t=7	!	!	!LO:TX:a:Bi:t=7	!	!	!LO:TX:b:Bi:t=7.	!	!LO:TX:a:Bi:t=7	!	!	!	!	!	!	!LO:TX:a:Bi:t=7	!	!LO:TX:a:Bi:t=7	!
4F\	n	.	4f\	.	(<8An/L	.	4cc\	.	0.r	.	.	4c\)	.	.	0.r	.	.	0.r	.	.	0.r	.	0.r	.	0.r	.	2.r	4F\	.	0.r	.	0.r	.
.	.	.	.	.	8f/)	.	.	.	.	.	.	.	.	.	.	.	.	.	.	.	.	.	.	.	.	.	.	.	.	.	.	.	.
4FF/	.	.	4F/	.	(<8A/	.	4cc\	.	.	.	.	4c\	-ni	.	.	.	.	.	.	.	.	.	.	.	.	.	.	4FF/	.	.	.	.	.
.	.	.	.	.	8f/)	.	.	.	.	.	.	.	.	.	.	.	.	.	.	.	.	.	.	.	.	.	.	.	.	.	.	.	.
4r	.	.	4r	.	(<8B-/	.	(>8dd\L	.	.	.	.	8d\L	Sunt	.	.	.	.	.	.	.	.	.	.	.	.	.	.	4r	.	.	.	.	.
.	.	.	.	.	8g/J)	.	8een\J)	.	.	.	.	8en\J	.	.	.	.	.	.	.	.	.	.	.	.	.	.	.	.	.	.	.	.	.
=23	=23	=23	=23	=23	=23	=23	=23	=23	=23	=23	=23	=23	=23	=23	=23	=23	=23	=23	=23	=23	=23	=23	=23	=23	=23	=23	=23	=23	=23	=23	=23	=23	=23
4F\	.	.	4f\	.	(<8a-/L	.	4ff\	.	.	.	.	4f\	Cae-	.	.	.	.	.	.	.	.	.	.	.	.	.	2.r	4F\	.	.	.	.	.
.	.	.	.	.	8f/)	.	.	.	.	.	.	.	.	.	.	.	.	.	.	.	.	.	.	.	.	.	.	.	.	.	.	.	.
4r	.	.	4r	.	(<8a-/	.	4ff\	.	.	.	.	4f\	-li	.	.	.	.	.	.	.	.	.	.	.	.	.	.	4r	.	.	.	.	.
.	.	.	.	.	8f/)	.	.	.	.	.	.	.	.	.	.	.	.	.	.	.	.	.	.	.	.	.	.	.	.	.	.	.	.
4BB-/	.	.	4B-/	.	(<8b-/	.	(>8dd\L	.	.	.	.	8d\L	et	.	.	.	.	.	.	.	.	.	.	.	.	.	.	4BB-/	.	.	.	.	.
.	.	.	.	.	8g/J)	.	8b-\J)	.	.	.	.	8B-\J	.	.	.	.	.	.	.	.	.	.	.	.	.	.	.	.	.	.	.	.	.
=24	=24	=24	=24	=24	=24	=24	=24	=24	=24	=24	=24	=24	=24	=24	=24	=24	=24	=24	=24	=24	=24	=24	=24	=24	=24	=24	=24	=24	=24	=24	=24	=24	=24
4AAn/	.	.	4An/	.	(<8a-/L	.	4cc\	.	.	.	.	[>4c\	ter-	.	.	.	.	.	.	.	.	.	.	.	.	.	2.r	4AAn/	.	.	.	.	.
.	.	.	.	.	8f/)	.	.	.	.	.	.	.	.	.	.	.	.	.	.	.	.	.	.	.	.	.	.	.	.	.	.	.	.
4BB-/	.	.	4B-/	.	(<8a-/	.	(>8cc\L	.	.	.	.	8c\L]	.	.	.	.	.	.	.	.	.	.	.	.	.	.	.	4BB-/	.	.	.	.	.
.	.	.	.	.	8f/)	.	8an\J)	.	.	.	.	8An\	.	.	.	.	.	.	.	.	.	.	.	.	.	.	.	.	.	.	.	.	.
4C/	.	.	4c/	.	(<8d/	.	(>8b-\L	.	.	.	.	8B-\	.	.	.	.	.	.	.	.	.	.	.	.	.	.	.	4C/	.	.	.	.	.
.	.	.	.	.	8B-/J)	.	8g\J)	.	.	.	.	8G\J	.	.	.	.	.	.	.	.	.	.	.	.	.	.	.	.	.	.	.	.	.
=25	=25	=25	=25	=25	=25	=25	=25	=25	=25	=25	=25	=25	=25	=25	=25	=25	=25	=25	=25	=25	=25	=25	=25	=25	=25	=25	=25	=25	=25	=25	=25	=25	=25
2F\	.	.	2F/	.	2A-/	.	2f/	.	.	.	.	2F/	-ra	.	.	.	.	.	.	.	.	.	.	.	.	.	2.r	2F\	.	.	.	.	.
4r	.	.	4r	.	(<8e-/L	.	(<8g/L	.	.	.	.	8G/L	Sunt	.	.	.	.	.	.	.	.	.	.	.	.	.	.	4r	.	.	.	.	.
.	.	.	.	.	8c/J)	.	8a-/J)	.	.	.	.	8A-/J	.	.	.	.	.	.	.	.	.	.	.	.	.	.	.	.	.	.	.	.	.
=26	=26	=26	=26	=26	=26	=26	=26	=26	=26	=26	=26	=26	=26	=26	=26	=26	=26	=26	=26	=26	=26	=26	=26	=26	=26	=26	=26	=26	=26	=26	=26	=26	=26
4B-\	.	.	4b-\	.	(<8d/L	.	4b-\	.	1.r	.	.	4B-\	Cae-	.	1.r	.	.	1.r	.	.	1.r	.	1.r	.	1.r	.	2.r	4B-\	.	1.r	.	1.r	.
.	.	.	.	.	8f/)	.	.	.	.	.	.	.	.	.	.	.	.	.	.	.	.	.	.	.	.	.	.	.	.	.	.	.	.
4BB-/	.	.	4B-/	.	(<8d/	.	4b-\	.	.	.	.	4B-\	-li	.	.	.	.	.	.	.	.	.	.	.	.	.	.	4BB-/	.	.	.	.	.
.	.	.	.	.	8f/)	.	.	.	.	.	.	.	.	.	.	.	.	.	.	.	.	.	.	.	.	.	.	.	.	.	.	.	.
4r	.	.	4r	.	(<8A-/	.	(>8cc\L	.	.	.	.	8c\L	et	.	.	.	.	.	.	.	.	.	.	.	.	.	.	4r	.	.	.	.	.
.	.	.	.	.	8B-/J)	.	8dd\J)	.	.	.	.	8d\J	.	.	.	.	.	.	.	.	.	.	.	.	.	.	.	.	.	.	.	.	.
!	!	!	!	!	!LO:LB:g=original	!	!LO:LB:g=original	!	!	!	!	!	!	!	!	!	!	!	!	!	!	!	!	!	!	!	!	!	!	!	!	!	!
=27	=27	=27	=27	=27	=27	=27	=27	=27	=27	=27	=27	=27	=27	=27	=27	=27	=27	=27	=27	=27	=27	=27	=27	=27	=27	=27	=27	=27	=27	=27	=27	=27	=27
4An\	.	.	2an\	.	(<8c/L	.	4ee-X\	.	.	.	.	2e-\	ter-	.	.	.	.	.	.	.	.	.	.	.	.	.	2.r	4An\	.	.	.	.	.
.	.	.	.	.	8f/)	.	.	.	.	.	.	.	.	.	.	.	.	.	.	.	.	.	.	.	.	.	.	.	.	.	.	.	.
4F\	.	.	.	.	(<8c/	.	(>4ee-\	.	.	.	.	.	.	.	.	.	.	.	.	.	.	.	.	.	.	.	.	4F\	.	.	.	.	.
.	.	.	.	.	8f/)	.	.	.	.	.	.	.	.	.	.	.	.	.	.	.	.	.	.	.	.	.	.	.	.	.	.	.	.
4B-\	.	.	4b-\	.	(<8B-/	.	4dd\)	.	.	.	.	4d\	-ra	.	.	.	.	.	.	.	.	.	.	.	.	.	.	4B-\	.	.	.	.	.
.	.	.	.	.	8f/J)	.	.	.	.	.	.	.	.	.	.	.	.	.	.	.	.	.	.	.	.	.	.	.	.	.	.	.	.
!	!	!	!	!	!	!	!	!	!	!	!	!LO:LB:g=original	!	!	!	!	!	!	!	!	!	!	!	!	!	!	!	!	!	!	!	!	!
=28	=28	=28	=28	=28	=28	=28	=28	=28	=28	=28	=28	=28	=28	=28	=28	=28	=28	=28	=28	=28	=28	=28	=28	=28	=28	=28	=28	=28	=28	=28	=28	=28	=28
4E-\	.	.	4e-\	.	(<8e-/L	.	(>8dd\L	.	2.r	.	.	8d\L	glo-	.	2.r	.	.	2.r	.	.	2.r	.	2.r	.	2.r	.	2.r	4E-\	.	2.r	.	2.r	.
.	.	.	.	.	8f/)	.	8cc\)	.	.	.	.	8c\J	.	.	.	.	.	.	.	.	.	.	.	.	.	.	.	.	.	.	.	.	.
4C\	.	.	4c\	.	(<8c/	.	(>8ee-\	.	.	.	.	8e-\	-ri-	.	.	.	.	.	.	.	.	.	.	.	.	.	.	4C\	.	.	.	.	.
.	.	.	.	.	8e-/)	.	8cc\	.	.	.	.	8c\	-a	.	.	.	.	.	.	.	.	.	.	.	.	.	.	.	.	.	.	.	.
4F\	n	.	4f\	.	8d/	.	8b-\	.	.	.	.	8B-\L	tu-	.	.	.	.	.	.	.	.	.	.	.	.	.	.	4F\	.	.	.	.	.
.	.	.	.	.	8c/J	.	8an\J)	.	.	.	.	8An\J	.	.	.	.	.	.	.	.	.	.	.	.	.	.	.	.	.	.	.	.	.
=29	=29	=29	=29	=29	=29	=29	=29	=29	=29	=29	=29	=29	=29	=29	=29	=29	=29	=29	=29	=29	=29	=29	=29	=29	=29	=29	=29	=29	=29	=29	=29	=29	=29
4BB-/	.	.	4f\	.	4d/	.	4b-\	.	4r	.	.	4B-\	-a	.	4r	.	.	4r	.	.	4r	.	4r	.	4r	.	4r	4BB-/	.	4r	.	4r	.
4r	.	.	4r	.	4r	.	4r	.	4r	.	.	4r	.	.	4r	.	.	4r	.	.	4r	.	4r	.	4r	.	4r	4r	.	4r	.	4r	.
!	!	!	!	!	!	!	!	!	!	!	!	!	!	!	!	!	!	!LO:LB:g=original	!	!	!	!	!	!	!	!	!	!	!	!	!	!	!
=:|!	=:|!	=:|!	=:|!	=:|!	=:|!	=:|!	=:|!	=:|!	=:|!	=:|!	=:|!	=:|!	=:|!	=:|!	=:|!	=:|!	=:|!	=:|!	=:|!	=:|!	=:|!	=:|!	=:|!	=:|!	=:|!	=:|!	=:|!	=:|!	=:|!	=:|!	=:|!	=:|!	=:|!
*>D	*	*	*>D	*	*>D	*	*>D	*	*>D	*	*	*>D	*	*	*>D	*	*	*>D	*	*	*>D	*	*>D	*	*>D	*	*>D	*>D	*	*>D	*	*>D	*
4r	.	.	4r	.	4r	.	4r	.	4r	.	.	4r	.	.	4r	.	.	4r	.	.	4r	.	4r	.	4r	.	4r	4r	.	4r	.	4r	.
!LO:LB:g=original	!	!	!	!	!	!	!	!	!	!	!	!	!	!	!	!	!	!	!	!	!	!	!	!	!	!	!	!	!	!	!	!	!
=30	=30	=30	=30	=30	=30	=30	=30	=30	=30	=30	=30	=30	=30	=30	=30	=30	=30	=30	=30	=30	=30	=30	=30	=30	=30	=30	=30	=30	=30	=30	=30	=30	=30
!LO:TX:b:Bi:t=unis	!	!	!	!	!	!	!	!	!	!	!	!	!	!	!	!	!	!	!	!	!LO:TX:a:Bi:t=11.	!	!	!	!	!	!	!	!	!	!	!	!
!	!	!	!	!	!LO:TX:a:Bi:t=1	!	!LO:TX:a:Bi:t=1	!	!	!	!	!	!	!	!	!	!	!	!	!	!LO:TX:b:Bi:t=11.	!	!	!LO:DY:a	!	!	!LO:TX:a:Bi:t=1	!LO:TX:a:Bi:t=1	!	!	!	!	!
!	!	!	!	!	!	!	!	!	!	!	!	!	!	!	!	!	!	!	!	!	!LO:TX:a:t=P:problem:w źródle 11 taktów pauz zapisane jako jedna duża pozioma pauza	!	!	!	!	!	!	!	!	!	!	!	!
!	!	!	!	!LO:DY:b:Bi:t=poco %sorto:color=red	!	!	!	!	!	!	!	!	!	!LO:DY:a:Bi:t=%s	!	!	!LO:DY:b	!	!	!	!	!	!	!	!	!	!	!	!	!	!	!	!
4B-|> 4BB-\	.	.	4b-\	f	2.r	.	2.r	.	4B-\	Ple-	.	4B-\	Ple-	f	4b-\	Ple-	f	4b-\	Ple-	.	2.r	.	4BB-/	p	4B-/	p	2.r	2.r	.	4b-\	mf	4b-\	mf
4B-|> 4BB-\	.	.	4b-\	.	.	.	.	.	8B-\	-ni	.	8B-\	-ni	.	8b-\	-ni	.	8b-\	-ni	.	.	.	4BB-/	.	4B-/	.	.	.	.	4b-\	.	4b-\	.
.	.	.	.	.	.	.	.	.	8B-\	Sunt	.	8B-\	Sunt	.	8b-\	Sunt	.	8b-\	Sunt	.	.	.	.	.	.	.	.	.	.	.	.	.	.
!LO:TX:b:Bi:t=Tutti	!	!	!	!	!	!	!	!	!	!	!	!	!	!	!	!	!	!	!	!	!	!	!	!	!	!	!	!	!	!	!	!	!
4B-|> 4BB-\	.	.	4b-\	.	.	.	.	.	4B-\	Cae-	.	4B-\	Cae-	.	4b-\	Cae-	.	4b-\	Cae-	.	.	.	4BB-/	.	4B-/	.	.	.	.	4b-\	.	4b-\	.
!	!	!	!LO:LB:g=original	!	!	!	!	!	!	!	!	!	!	!	!LO:LB:g=original	!	!	!	!	!	!	!	!	!	!	!	!LO:LB:g=original	!LO:LB:g=original	!	!	!	!	!
=31	=31	=31	=31	=31	=31	=31	=31	=31	=31	=31	=31	=31	=31	=31	=31	=31	=31	=31	=31	=31	=31	=31	=31	=31	=31	=31	=31	=31	=31	=31	=31	=31	=31
!	!	!	!	!	!	!LO:DY:b:Bi:t=%sia:color=red	!	!	!	!	!	!	!	!	!	!	!	!	!	!	!	!	!	!	!	!	!	!	!	!	!	!	!
4B- 4BB-\	.	.	4b-\	.	4r	p	4r	.	4B-\	-li	.	4B-\	-li	.	4b-\	-li	.	4b-\	-li	.	2.r	.	4BB-/	.	4B-/	.	4r	4r	.	4b-\	.	4b-\	.
!	!	!LO:DY:b:Bi:t=%sia:color=red	!	!	!	!	!	!	!	!	!	!	!	!	!	!	!	!	!	!	!	!	!	!	!	!	!	!	!	!	!	!	!
4r	.	p	4r	.	8a-X|</L	.	8ff|>\L	p	4r	.	.	4r	.	.	4r	.	.	4r	.	.	.	.	4r	.	4r	.	4F\	4A-X\	mf	4r	.	4r	.
.	.	.	.	.	8a-|</	.	8ff|>\	.	.	.	.	.	.	.	.	.	.	.	.	.	.	.	.	.	.	.	.	.	.	.	.	.	.
4r	.	.	4r	.	8f|</	.	8dd|>\	.	4r	.	.	4r	.	.	4r	.	.	4r	.	.	.	.	4r	.	4r	.	4D\	4F\	.	4r	.	4r	.
.	.	.	.	.	8f|</J	.	8dd|>\J	.	.	.	.	.	.	.	.	.	.	.	.	.	.	.	.	.	.	.	.	.	.	.	.	.	.
=32	=32	=32	=32	=32	=32	=32	=32	=32	=32	=32	=32	=32	=32	=32	=32	=32	=32	=32	=32	=32	=32	=32	=32	=32	=32	=32	=32	=32	=32	=32	=32	=32	=32
!	!	!	!	!	!LO:TX:a:Bi:t=1	!	!	!	!	!	!	!	!	!	!	!	!	!	!	!	!	!	!	!	!	!	!	!LO:TX:a:Bi:t=1	!	!	!	!	!
4B-|> 4BB-\	.	.	4b-\	.	2.r	.	2.r	.	4B-\	Cae-	.	4B-\	Cae-	.	4b-\	Cae-	.	4b-\	Cae-	.	2.r	.	4BB-/	.	4B-/	.	2.r	2.r	.	4b-\	.	4b-\	.
4B-|> 4BB-\	.	.	4b-\	.	.	.	.	.	8B-\	-li	.	8B-\	-li	.	8b-\	-li	.	8b-\	-li	.	.	.	4BB-/	.	4B-/	.	.	.	.	4b-\	.	4b-\	.
.	.	.	.	.	.	.	.	.	8B-\	et	.	8B-\	et	.	8b-\	et	.	8b-\	et	.	.	.	.	.	.	.	.	.	.	.	.	.	.
4B-|> 4BB-\	.	.	4b-\	.	.	.	.	.	4B-\	ter-	.	4B-\	ter-	.	4b-\	ter-	.	4b-\	ter-	.	.	.	4BB-/	.	4B-/	.	.	.	.	4b-\	.	4b-\	.
=33	=33	=33	=33	=33	=33	=33	=33	=33	=33	=33	=33	=33	=33	=33	=33	=33	=33	=33	=33	=33	=33	=33	=33	=33	=33	=33	=33	=33	=33	=33	=33	=33	=33
4B- 4BB-\	.	.	4b-\	.	4r	.	4r	.	4B-\	-ra	.	4B-\	-ra	.	4b-\	-ra	.	4b-\	-ra	.	2.r	.	4BB-/	.	4B-/	.	4r	4r	.	4b-\	.	4b-\	.
4r	.	.	4r	.	8b-|</L	.	8gg|>\L	.	4r	.	.	4r	.	.	4r	.	.	4r	.	.	.	.	4r	.	4r	.	4G\	4B-\	.	4r	.	4r	.
.	.	.	.	.	8b-|</	.	8gg|>\	.	.	.	.	.	.	.	.	.	.	.	.	.	.	.	.	.	.	.	.	.	.	.	.	.	.
4r	.	.	4r	.	8g|</	.	8ee-|>\	.	4r	.	.	4r	.	.	4r	.	.	4r	.	.	.	.	4r	.	4r	.	4E-\	4G\	.	4r	.	4r	.
.	.	.	.	.	8g|</J	.	8ee-|>\J	.	.	.	.	.	.	.	.	.	.	.	.	.	.	.	.	.	.	.	.	.	.	.	.	.	.
=34	=34	=34	=34	=34	=34	=34	=34	=34	=34	=34	=34	=34	=34	=34	=34	=34	=34	=34	=34	=34	=34	=34	=34	=34	=34	=34	=34	=34	=34	=34	=34	=34	=34
!	!	!	!	!	!LO:TX:a:Bi:t=1	!	!	!	!	!	!	!	!	!	!	!	!	!	!	!	!	!	!	!	!	!	!LO:TX:a:Bi:t=1	!LO:TX:a:Bi:t=1	!	!	!	!	!
4B-|> 4BB-\	.	.	4b-\	.	2.r	.	2.r	.	2B-\	glo-	.	2B-\	glo-	.	2b-\	glo-	.	2b-\	glo-	.	2.r	.	4BB-/	.	4B-/	.	2.r	2.r	.	4b-\	.	4b-\	.
4B-|> 4BB-\	.	.	4b-\	.	.	.	.	.	.	.	.	.	.	.	.	.	.	.	.	.	.	.	4BB-/	.	4B-/	.	.	.	.	4b-\	.	4b-\	.
4B-|> 4BB-\	.	.	4b-\	.	.	.	.	.	4B-\	-ri-	.	4B-\	-ri-	.	4b-\	-ri-	.	4b-\	-ri-	.	.	.	4BB-/	.	4B-/	.	.	.	.	4b-\	.	4b-\	.
!	!	!	!	!	!	!	!	!	!	!	!	!	!	!	!	!	!	!	!	!	!	!	!	!	!	!	!	!	!	!LO:LB:g=original	!	!LO:LB:g=original	!
=35	=35	=35	=35	=35	=35	=35	=35	=35	=35	=35	=35	=35	=35	=35	=35	=35	=35	=35	=35	=35	=35	=35	=35	=35	=35	=35	=35	=35	=35	=35	=35	=35	=35
4B-|> 4BB-\	.	.	4b-\	.	4r	.	4r	.	4B-\	-a	.	4B-\	-a	.	4b-\	-a	.	4b-\	-a	.	2.r	.	4BB-/	.	4B-/	.	4r	4r	.	4b-\	.	4b-\	.
4r	.	.	4r	.	8ff|>\L	.	8aa-|>\L	.	4r	.	.	4r	.	.	4r	.	.	4r	.	.	.	.	4r	.	4r	.	4A-\	4f\	.	4r	.	4r	.
.	.	.	.	.	8ff|>\	.	8aa-|>\	.	.	.	.	.	.	.	.	.	.	.	.	.	.	.	.	.	.	.	.	.	.	.	.	.	.
4r	.	.	4r	.	8dd|>\	.	8ff|>\	.	4r	.	.	4r	.	.	4r	.	.	4r	.	.	.	.	4r	.	4r	.	4F\	4d\	.	4r	.	4r	.
.	.	.	.	.	8dd|>\J	.	8ff|>\J	.	.	.	.	.	.	.	.	.	.	.	.	.	.	.	.	.	.	.	.	.	.	.	.	.	.
=36	=36	=36	=36	=36	=36	=36	=36	=36	=36	=36	=36	=36	=36	=36	=36	=36	=36	=36	=36	=36	=36	=36	=36	=36	=36	=36	=36	=36	=36	=36	=36	=36	=36
4B-|> 4BB-\	.	.	4b-\	.	4r	.	4r	.	4B-\	tu-	.	4B-\	tu-	.	4b-\	tu-	.	4b-\	tu-	.	2.r	.	4BB-/	.	4B-/	.	4r	4r	.	4b-\	.	4b-\	.
4r	.	.	4r	.	8gg|>\L	.	8bb-|>\L	.	4r	.	.	4r	.	.	4r	.	.	4r	.	.	.	.	4r	.	4r	.	4B-\	4g\	.	4r	.	4r	.
.	.	.	.	.	8gg|>\	.	8bb-|>\	.	.	.	.	.	.	.	.	.	.	.	.	.	.	.	.	.	.	.	.	.	.	.	.	.	.
4r	.	.	4r	.	8ee-|>\	.	8gg|>\	.	4r	.	.	4r	.	.	4r	.	.	4r	.	.	.	.	4r	.	4r	.	4G\	4e-\	.	4r	.	4r	.
.	.	.	.	.	8ee-|>\J	.	8gg|>\J	.	.	.	.	.	.	.	.	.	.	.	.	.	.	.	.	.	.	.	.	.	.	.	.	.	.
!	!	!	!	!	!	!	!LO:LB:g=original	!	!	!	!	!LO:LB:g=original	!	!	!	!	!	!	!	!	!	!	!	!	!	!	!	!	!	!	!	!	!
=37	=37	=37	=37	=37	=37	=37	=37	=37	=37	=37	=37	=37	=37	=37	=37	=37	=37	=37	=37	=37	=37	=37	=37	=37	=37	=37	=37	=37	=37	=37	=37	=37	=37
4B-|> 4BB-\	.	.	4b-\	.	4r	.	4r	.	4B-\	-a	.	4B-\	.	.	4b-\	-a	.	4b-\	-a	.	2.r	.	4BB-/	.	4B-/	.	4r	4r	.	4b-\	.	4b-\	.
4r	.	.	4r	.	8a-|</L	.	8ff|>\L	.	4r	.	.	4r	.	.	4r	.	.	4r	.	.	.	.	4r	.	4r	.	4F\	4A-\	.	4r	.	4r	.
.	.	.	.	.	8a-|</	.	8ff|>\	.	.	.	.	.	.	.	.	.	.	.	.	.	.	.	.	.	.	.	.	.	.	.	.	.	.
4r	.	.	4r	.	8f|</	.	8dd|>\	.	4r	.	.	4r	.	.	4r	.	.	4r	.	.	.	.	4r	.	4r	.	4D\	4F\	.	4r	.	4r	.
.	.	.	.	.	8f|</J	.	8dd|>\J	.	.	.	.	.	.	.	.	.	.	.	.	.	.	.	.	.	.	.	.	.	.	.	.	.	.
=38	=38	=38	=38	=38	=38	=38	=38	=38	=38	=38	=38	=38	=38	=38	=38	=38	=38	=38	=38	=38	=38	=38	=38	=38	=38	=38	=38	=38	=38	=38	=38	=38	=38
4B-|> 4FF\	.	.	4b-\	.	4r	.	4r	.	4B-\	tu-	.	4B-\	.	.	4b-\	tu-	.	4b-\	tu-	.	2.r	.	4BB-/	.	4B-/	.	4r	4r	.	4b-\	.	4b-\	.
4r	.	.	4r	.	8b-|</L	.	8gg|>\L	.	4r	.	.	4r	.	.	4r	.	.	4r	.	.	.	.	4r	.	4r	.	4G\	4B-\	.	4r	.	4r	.
.	.	.	.	.	8b-|</	.	8gg|>\	.	.	.	.	.	.	.	.	.	.	.	.	.	.	.	.	.	.	.	.	.	.	.	.	.	.
4r	.	.	4r	.	8g|</	.	8ee-|>\	.	4r	.	.	4r	.	.	4r	.	.	4r	.	.	.	.	4r	.	4r	.	4E-\	4G\	.	4r	.	4r	.
.	.	.	.	.	8g|</J	.	8ee-|>\J	.	.	.	.	.	.	.	.	.	.	.	.	.	.	.	.	.	.	.	.	.	.	.	.	.	.
!	!	!	!	!	!LO:LB:g=original	!	!	!	!LO:LB:g=original	!	!	!	!	!	!	!	!	!	!	!	!	!	!LO:LB:g=original	!	!	!	!	!	!	!	!	!	!
=39	=39	=39	=39	=39	=39	=39	=39	=39	=39	=39	=39	=39	=39	=39	=39	=39	=39	=39	=39	=39	=39	=39	=39	=39	=39	=39	=39	=39	=39	=39	=39	=39	=39
!	!	!	!	!	!	!	!	!	!	!	!	!	!	!	!	!	!	!	!	!	!	!	!LO:TX:t=P:problem:w źródle uszkodzony papier	!	!	!	!	!	!	!	!	!	!
4B-|> 4BB-\	.	.	4b-\	.	4r	.	4r	.	4B-\	-a	.	4B-\	-a	.	4b-\	-a	.	4b-\	-a	.	2.r	.	4ryy	.	4B-/	.	4r	4r	.	4b-\	.	4b-\	.
4r	.	.	4r	.	8ff|>\L	.	8aa-|>\L	.	4r	.	.	4r	.	.	4r	.	.	4r	.	.	.	.	4ryy	.	4r	.	4A-\	4f\	.	4r	.	4r	.
.	.	.	.	.	8ff|>\	.	8aa-|>\	.	.	.	.	.	.	.	.	.	.	.	.	.	.	.	.	.	.	.	.	.	.	.	.	.	.
4r	.	.	4r	.	8dd|>\	.	8ff|>\	.	4r	.	.	4r	.	.	4r	.	.	4r	.	.	.	.	4r	.	4r	.	4F\	4d\	.	4r	.	4r	.
.	.	.	.	.	8dd|>\J	.	8ff|>\J	.	.	.	.	.	.	.	.	.	.	.	.	.	.	.	.	.	.	.	.	.	.	.	.	.	.
=40	=40	=40	=40	=40	=40	=40	=40	=40	=40	=40	=40	=40	=40	=40	=40	=40	=40	=40	=40	=40	=40	=40	=40	=40	=40	=40	=40	=40	=40	=40	=40	=40	=40
!	!	!LO:DY:b:Bi:t=%sorto:color=red	!	!LO:DY:b	!	!LO:DY:b:Bi:t=%sorto:color=red	!	!LO:DY:b:Bi:t=%sorto:color=red	!	!	!LO:DY:a:rj	!	!	!LO:DY:a:Bi:t=%s:rj	!	!	!LO:DY:b	!	!	!LO:DY:b	!	!	!	!	!	!	!	!	!	!	!	!LO:TX:b:Bi:t=Solo	!
8E-\L	3	f	16g\LL	ff	16gg\LL	f	16bb-\LL	f	(>4E-\	o-	ff	(<4G/	o-	f	(>4b-\	O-	f	(>4gg\	O-	f	2.r	.	4G/	.	4e-\	.	4E-\	4G\	ff	4gg\	ff	4bb-\	f
.	.	.	16g\	.	16gg\	.	16bb-\	.	.	.	.	.	.	.	.	.	.	.	.	.	.	.	.	.	.	.	.	.	.	.	.	.	.
8E-\	.	.	16g\	.	16gg\	.	16bb-\	.	.	.	.	.	.	.	.	.	.	.	.	.	.	.	.	.	.	.	.	.	.	.	.	.	.
.	.	.	16g\JJ	.	16gg\JJ	.	16bb-\JJ	.	.	.	.	.	.	.	.	.	.	.	.	.	.	.	.	.	.	.	.	.	.	.	.	.	.
*	*	*	*tremolo	*	*tremolo	*	*tremolo	*	*	*	*	*	*	*	*	*	*	*	*	*	*	*	*	*	*	*	*	*	*	*	*	*	*
8F\	6	.	16a-\LL	.	16ff\LL	.	16aa-\LL	.	4F\)	.	.	4A-/	.	.	4a-\	.	.	4ff\)	.	.	.	.	4r	.	4r	.	4F\	4A-\	.	4ff\	.	4aa-\	.
.	.	.	16a-\	.	16ff\	.	16aa-\	.	.	.	.	.	.	.	.	.	.	.	.	.	.	.	.	.	.	.	.	.	.	.	.	.	.
8F\	.	.	16a-\	.	16ff\	.	16aa-\	.	.	.	.	.	.	.	.	.	.	.	.	.	.	.	.	.	.	.	.	.	.	.	.	.	.
.	.	.	16a-\JJ	.	16ff\JJ	.	16aa-\JJ	.	.	.	.	.	.	.	.	.	.	.	.	.	.	.	.	.	.	.	.	.	.	.	.	.	.
8G\	6	.	16b-\LL	.	16ee-\LL	.	16gg\LL	.	4G\	.	.	4B-/)	.	.	4g\)	.	.	4ee-\	.	.	.	.	4r	.	4r	.	4G\	4B-\	.	4ee-\	.	4gg\	.
.	.	.	16b-\	.	16ee-\	.	16gg\	.	.	.	.	.	.	.	.	.	.	.	.	.	.	.	.	.	.	.	.	.	.	.	.	.	.
8G\J	.	.	16b-\	.	16ee-\	.	16gg\	.	.	.	.	.	.	.	.	.	.	.	.	.	.	.	.	.	.	.	.	.	.	.	.	.	.
.	.	.	16b-\JJ	.	16ee-\JJ	.	16gg\JJ	.	.	.	.	.	.	.	.	.	.	.	.	.	.	.	.	.	.	.	.	.	.	.	.	.	.
!	!	!	!	!	!	!	!	!	!	!	!	!	!	!	!	!	!	!LO:LB:g=original	!	!	!LO:PB:g=original	!	!	!	!	!	!	!	!	!	!	!	!
=41	=41	=41	=41	=41	=41	=41	=41	=41	=41	=41	=41	=41	=41	=41	=41	=41	=41	=41	=41	=41	=41	=41	=41	=41	=41	=41	=41	=41	=41	=41	=41	=41	=41
!	!	!	!	!	!	!	!	!	!	!	!	!	!	!	!	!	!	!	!	!	!	!LO:DY:b:Bi:t=%s:color=black	!	!LO:DY:a	!	!	!	!	!	!	!	!	!
8A-\L	6	.	16cc\LL	.	16a-/LL	.	16ff\LL	.	(>4A-\	-San-	.	(>4c\	-San-	.	(>4a-\	-San-	.	(>4ff\	-San-	.	4AA#/	f	4f\	f	4a-\	f	4A-\	4A-\	.	4a-/	.	4ff\	.
.	.	.	16cc\	.	16a-/	.	16ff\	.	.	.	.	.	.	.	.	.	.	.	.	.	.	.	.	.	.	.	.	.	.	.	.	.	.
8A-\J	.	.	16cc\	.	16a-/	.	16ff\	.	.	.	.	.	.	.	.	.	.	.	.	.	.	.	.	.	.	.	.	.	.	.	.	.	.
.	.	.	16cc\JJ	.	16a-/JJ	.	16ff\JJ	.	.	.	.	.	.	.	.	.	.	.	.	.	.	.	.	.	.	.	.	.	.	.	.	.	.
!LO:LB:g=original	!	!	!	!	!	!	!	!	!	!	!	!	!	!	!	!	!	!	!	!	!	!	!	!	!	!	!	!	!	!	!	!	!
!LO:TX:t=P:problem:mixed beam	!	!	!	!	!	!	!	!	!	!	!	!	!	!	!	!	!	!	!	!	!	!	!	!	!	!	!	!	!	!	!	!	!
8B-\L	.	.	16b-\LL	.	16g/LL	.	16ee-\LL	.	4B-\)	.	.	4B-\)	.	.	4g\)	.	.	4ee-\)	.	.	4D#\	.	4e-\	.	4g\	.	4B-\	4B-\	.	4g/	.	4ee-\	.
.	.	.	16b-\	.	16g/	.	16ee-\	.	.	.	.	.	.	.	.	.	.	.	.	.	.	.	.	.	.	.	.	.	.	.	.	.	.
8B-\	4	.	16b-\	.	16g/	.	16ee-\	.	.	.	.	.	.	.	.	.	.	.	.	.	.	.	.	.	.	.	.	.	.	.	.	.	.
.	.	.	16b-\	.	16g/JJ	.	16ee-\JJ	.	.	.	.	.	.	.	.	.	.	.	.	.	.	.	.	.	.	.	.	.	.	.	.	.	.
8BB-/	3	.	16b-\	.	16f/LL	.	16dd\LL	.	4BB-/	-na	.	4B-\	-na	.	4f\	-na	.	4dd\	-na	.	4AA#/	.	4B-/	.	4f\	.	4BB-/	4BB-/	.	4f/	.	4dd\	.
.	.	.	16b-\	.	16f/	.	16dd\	.	.	.	.	.	.	.	.	.	.	.	.	.	.	.	.	.	.	.	.	.	.	.	.	.	.
8BB-/J	.	.	16b-\	.	16f/	.	16dd\	.	.	.	.	.	.	.	.	.	.	.	.	.	.	.	.	.	.	.	.	.	.	.	.	.	.
.	.	.	16b-\JJ	.	16f/JJ	.	16dd\JJ	.	.	.	.	.	.	.	.	.	.	.	.	.	.	.	.	.	.	.	.	.	.	.	.	.	.
=42	=42	=42	=42	=42	=42	=42	=42	=42	=42	=42	=42	=42	=42	=42	=42	=42	=42	=42	=42	=42	=42	=42	=42	=42	=42	=42	=42	=42	=42	=42	=42	=42	=42
8E-\L	.	.	16b-\LL	.	16gg\LL	.	16bb-\LL	.	(>4E-\	in	.	2B-\	in	.	(>4b-\	in	.	(>4gg\	in	.	4D#\	.	4G/	.	4e-\	.	4EE-/	4E-\	.	4gg\	.	4bb-\	.
.	.	.	16b-\	.	16gg\	.	16bb-\	.	.	.	.	.	.	.	.	.	.	.	.	.	.	.	.	.	.	.	.	.	.	.	.	.	.
8E-\	.	.	16b-\	.	16gg\	.	16bb-\	.	.	.	.	.	.	.	.	.	.	.	.	.	.	.	.	.	.	.	.	.	.	.	.	.	.
.	.	.	16b-\	.	16gg\JJ	.	16bb-\JJ	.	.	.	.	.	.	.	.	.	.	.	.	.	.	.	.	.	.	.	.	.	.	.	.	.	.
8F\	.	.	16b-\	.	16ff\LL	.	16aa-\LL	.	4F\)	.	.	.	.	.	4a-\)	.	.	4ff\)	.	.	4r	.	4r	.	4r	.	4FF/	4F\	.	4ff\	.	4aa-\	.
.	.	.	16b-\	.	16ff\	.	16aa-\	.	.	.	.	.	.	.	.	.	.	.	.	.	.	.	.	.	.	.	.	.	.	.	.	.	.
8F\	.	.	16b-\	.	16ff\	.	16aa-\	.	.	.	.	.	.	.	.	.	.	.	.	.	.	.	.	.	.	.	.	.	.	.	.	.	.
.	.	.	16b-\	.	16ff\JJ	.	16aa-\JJ	.	.	.	.	.	.	.	.	.	.	.	.	.	.	.	.	.	.	.	.	.	.	.	.	.	.
!	!	!	!	!	!	!	!	!	!	!	!	!	!	!	!LO:LB:g=original	!	!	!	!	!	!	!	!	!	!	!	!	!	!	!	!	!	!
!	!	!	!	!	!	!	!	!	!	!	!	!	!	!	!	!	!	!	!	!	!	!	!	!	!LO:TX:t=P:problem:w źródle uszkodzony papier	!	!	!	!	!	!	!	!
8G\	.	.	16b-\	.	16ee-\LL	.	16gg\LL	.	4G\	Ex-	.	4B-\	ex-	.	4g\	ex-	.	4ee-\	ex-	.	4r	.	4r	.	4ryy	.	4GG/	4G\	.	4ee-\	.	4gg\	.
.	.	.	16b-\	.	16ee-\	.	16gg\	.	.	.	.	.	.	.	.	.	.	.	.	.	.	.	.	.	.	.	.	.	.	.	.	.	.
8G\J	.	.	16b-\	.	16ee-\	.	16gg\	.	.	.	.	.	.	.	.	.	.	.	.	.	.	.	.	.	.	.	.	.	.	.	.	.	.
.	.	.	16b-\JJ	.	16ee-\JJ	.	16gg\JJ	.	.	.	.	.	.	.	.	.	.	.	.	.	.	.	.	.	.	.	.	.	.	.	.	.	.
!	!	!	!	!	!	!	!	!	!	!	!	!	!	!	!	!	!	!	!	!	!	!	!	!	!LO:LB:g=original	!	!	!	!	!	!	!	!
=43	=43	=43	=43	=43	=43	=43	=43	=43	=43	=43	=43	=43	=43	=43	=43	=43	=43	=43	=43	=43	=43	=43	=43	=43	=43	=43	=43	=43	=43	=43	=43	=43	=43
!LO:TX:t=P:problem:mixed beam	!	!	!	!	!	!	!	!	!	!	!	!	!	!	!	!	!	!	!	!	!	!	!	!	!	!	!	!	!	!	!	!	!
8A-\L	.	.	16cc\LL	.	16a-/LL	.	16ff\LL	.	(>4A-\	-cel-	.	(>4c\	-cel-	.	4a-\	-cel-	.	(>4ff\	-cel-	.	4AA#/	.	4f\	.	4a-\	.	4AA-/	4A-\	.	4a-/	.	4ff\	.
.	.	.	16cc\	.	16a-/	.	16ff\	.	.	.	.	.	.	.	.	.	.	.	.	.	.	.	.	.	.	.	.	.	.	.	.	.	.
8A-\	6	.	16cc\	.	16a-/	.	16ff\	.	.	.	.	.	.	.	.	.	.	.	.	.	.	.	.	.	.	.	.	.	.	.	.	.	.
.	.	.	16cc\JJ	.	16a-/JJ	.	16ff\JJ	.	.	.	.	.	.	.	.	.	.	.	.	.	.	.	.	.	.	.	.	.	.	.	.	.	.
8B-\	.	.	16b-\LL	.	16g/LL	.	16ee-\LL	.	4B-\)	.	.	2B-\)	.	.	4g\	.	.	4ee-\)	.	.	4D#\	.	4e-\	.	4g\	.	4BB-/	4B-\	.	4g/	.	4ee-\	.
.	.	.	16b-\	.	16g/	.	16ee-\	.	.	.	.	.	.	.	.	.	.	.	.	.	.	.	.	.	.	.	.	.	.	.	.	.	.
8B-\	4	.	16b-\	.	16g/	.	16ee-\	.	.	.	.	.	.	.	.	.	.	.	.	.	.	.	.	.	.	.	.	.	.	.	.	.	.
.	.	.	16b-\	.	16g/JJ	.	16ee-\JJ	.	.	.	.	.	.	.	.	.	.	.	.	.	.	.	.	.	.	.	.	.	.	.	.	.	.
8BB-/	3	.	16b-\	.	16f/LL	.	16dd\LL	.	4BB-/	.	.	.	.	.	4f\	.	.	4dd\	.	.	4AA#/	.	4B-/	.	4f\	.	4BBB-/	4BB-/	.	4f/	.	4dd\	.
.	.	.	16b-\	.	16f/	.	16dd\	.	.	.	.	.	.	.	.	.	.	.	.	.	.	.	.	.	.	.	.	.	.	.	.	.	.
8BB-/J	.	.	16b-\	.	16f/	.	16dd\	.	.	.	.	.	.	.	.	.	.	.	.	.	.	.	.	.	.	.	.	.	.	.	.	.	.
.	.	.	16b-\JJ	.	16f/JJ	.	16dd\JJ	.	.	.	.	.	.	.	.	.	.	.	.	.	.	.	.	.	.	.	.	.	.	.	.	.	.
*	*	*	*Xtremolo	*	*Xtremolo	*	*Xtremolo	*	*	*	*	*	*	*	*	*	*	*	*	*	*	*	*	*	*	*	*	*	*	*	*	*	*
!	!	!	!LO:LB:g=original	!	!	!	!	!	!	!	!	!	!	!	!	!	!	!	!	!	!	!	!	!	!	!	!LO:LB:g=original	!LO:LB:g=original	!	!	!	!	!
=44	=44	=44	=44	=44	=44	=44	=44	=44	=44	=44	=44	=44	=44	=44	=44	=44	=44	=44	=44	=44	=44	=44	=44	=44	=44	=44	=44	=44	=44	=44	=44	=44	=44
4E-\	.	.	4b-\	.	4g/	.	4ee-\	.	4E-\	-sis	.	4B-\	-sis	.	4g\	-sis	.	4ee-\	-sis	.	4D#\	.	4G/	.	4e-\	.	4EE-/	4E-\	.	4g/	.	4ee-\	.
4r	.	.	4r	.	(<8g/L	.	(>8ee-\L	.	4r	.	.	4r	.	.	4r	.	.	4r	.	.	4r	.	4r	.	4r	.	4r	4r	.	4r	.	4r	.
.	.	.	.	.	8b-/)	.	8gg\)	.	.	.	.	.	.	.	.	.	.	.	.	.	.	.	.	.	.	.	.	.	.	.	.	.	.
4r	.	.	4r	.	(<8g/	.	(>8ee-\	.	4r	.	.	4r	.	.	4r	.	.	4r	.	.	4r	.	4r	.	4r	.	4r	4r	.	4r	.	4r	.
.	.	.	.	.	8b-/J)	.	8gg\J)	.	.	.	.	.	.	.	.	.	.	.	.	.	.	.	.	.	.	.	.	.	.	.	.	.	.
=45	=45	=45	=45	=45	=45	=45	=45	=45	=45	=45	=45	=45	=45	=45	=45	=45	=45	=45	=45	=45	=45	=45	=45	=45	=45	=45	=45	=45	=45	=45	=45	=45	=45
!	!	!	!	!	!	!	!	!	!LO:TX:a:Bi:t=2	!	!	!LO:TX:a:Bi:t=2	!	!	!LO:TX:a:Bi:t=2	!	!	!	!	!	!	!	!	!	!	!	!	!	!	!	!	!	!
4E-\	5 3	.	4b-\	.	4g/	.	4ee-|>\	.	1.r	.	.	1.r	.	.	1.r	.	.	1.r	.	.	4D#\	.	4E-/	.	4e-\	.	4E-\	4E-\	.	4g/	.	4ee-\	.
4E-\	.	.	4b-\	.	4g/	.	4ee-|>\	.	.	.	.	.	.	.	.	.	.	.	.	.	4D#\	.	4E-/	.	4e-\	.	4BB-/	4BB-/	.	4g/	.	4ee-\	.
4E-\	.	.	4b-\	.	4g/	.	4ee-|>\	.	.	.	.	.	.	.	.	.	.	.	.	.	4D#\	.	4E-/	.	4e-\	.	4GG/	4GG/	.	4g/	.	4ee-\	.
=46	=46	=46	=46	=46	=46	=46	=46	=46	=46	=46	=46	=46	=46	=46	=46	=46	=46	=46	=46	=46	=46	=46	=46	=46	=46	=46	=46	=46	=46	=46	=46	=46	=46
2E-\	.	.	2b-\	.	2g/	.	2ee-\	.	.	.	.	.	.	.	.	.	.	.	.	.	2D#\	.	2E-/	.	2e-\	.	2EE-/	2EE-/	.	2g/	.	2ee-\	.
4r	.	.	4r	.	4r	.	4r	.	.	.	.	.	.	.	.	.	.	.	.	.	4r	.	4r	.	4r	.	4r	4r	.	4r	.	4r	.
==	==	==	==	==	==	==	==	==	==	==	==	==	==	==	==	==	==	==	==	==	==	==	==	==	==	==	==	==	==	==	==	==	==
*-	*-	*-	*-	*-	*-	*-	*-	*-	*-	*-	*-	*-	*-	*-	*-	*-	*-	*-	*-	*-	*-	*-	*-	*-	*-	*-	*-	*-	*-	*-	*-	*-	*-
!!!system-decoration: [(s1,s2[(s3,s4)])][(s5,s6)][(s7)][(s8,s9,s10,s11)][(s12,s13,s14)][(s15)]
!!!RDF**kern: > = above
!!!RDF**kern: < = below
!!!RDF**dynam: f = "fort", fontstyle= "bold-italic", color= red
!!!RDF**dynam: ff = "ff", fontstyle= "bold-italic", color= red
!!!RDF**dynam: p = "piano", fontstyle= "bold-italic", color= red
!!!RDF**dynam: mf = "mezzo forto", fontstyle= "bold-italic", color= red
!!!RDF**dynam: > = "dim", fontstyle= "bold-italic", color= red
!!!RDF**dynam: < = "cres", fontstyle= "bold-italic", color= red
!!!RDF**kern: | = vertical stroke
!!!RDF**kern: N = linked
!!!RDF**kern: i = editorial accidental
!!!RDF**kern: l = terminal long
!!!ENC: Andrzej Borzym
!!!END: 2020-11-06
!!!EED: Wojciech Jakubiak-Danek
!!!EEV: 2022-05-12
!!!YEC: Copyright 2022 Narodowy Instytut Fryderyka Chopina (https://polishscores.org)
!!!YEM: License CC-BY-4.0 (https://creativecommons.org/licenses/by/4.0)
